;FLAVOR:Marlin
;TIME:4163
;Filament used: 3.09098m
;Layer height: 0.2
;MINX:75.68
;MINY:103.76
;MINZ:0.2
;MAXX:154.404
;MAXY:126.24
;MAXZ:17.4
;TARGET_MACHINE.NAME:Mingda Magician X
;Generated with Cura_SteamEngine 5.5.0
M140 S85
M105
M190 S85
M104 S200
M105
M109 S200
M82 ;absolute extrusion mode
 G28 ; home all axes
 M420 S1
 M117 ; Purge extruder
 G92 E0 ; reset extruder
 G1 Z1.0 F3000 ; move z up little to prevent scratching of surface
 G1 X2 Y20 Z0.3 F5000.0 ; move to start-line position
 G1 X2 Y200.0 Z0.3 F1500.0 E15 ; draw 1st line
 G1 X2 Y200.0 Z0.4 F5000.0 ; move to side a little
 G1 X2 Y20 Z0.4 F1500.0 E30 ; draw 2nd line
 G92 E0 ; reset extruder
 G1 Z1.0 F3000 ; move z up little to prevent scratching of surface
G92 E0
G92 E0
G1 F1500 E-2
;LAYER_COUNT:85
;LAYER:0
M107
G1 F300 Z0.6
;MESH:flexbatter1x18650.stl
G0 F3600 X88.593 Y105.289 Z0.6
;TYPE:WALL-INNER
G1 F300 Z0.2
G1 F1500 E0
G1 F387.1 X92.863 Y105.29 E0.22013
G1 F1500 E-1.77987
G1 F300 Z0.6
G0 F3600 X97.422 Y111.236 Z0.6
G1 F300 Z0.2
G1 F1500 E0.22013
G1 F600 X96.988 Y111.292 E0.23469
G1 X96.862 Y111.299 E0.23888
G1 X96.735 Y111.292 E0.24311
G1 X96.35 Y111.243 E0.25602
G1 X96.091 Y111.173 E0.26495
G1 X95.725 Y111.02 E0.27814
G1 X95.505 Y110.894 E0.28657
G1 X95.197 Y110.66 E0.29944
G1 X95.008 Y110.471 E0.30833
G1 X94.768 Y110.157 E0.32147
G1 X94.675 Y110.011 E0.32723
G1 X94.45 Y109.461 E0.347
G1 X94.42 Y109.314 E0.35199
G1 X94.371 Y108.926 E0.36499
G1 F527.5 X94.366 Y108.271 E0.38977
G1 F463.3 X94.43 Y108.003 E0.40164
G1 F518.4 X94.768 Y107.443 E0.42682
G1 F600 X95.008 Y107.129 E0.43997
G1 X95.159 Y106.971 E0.44724
G1 X95.505 Y106.706 E0.46173
G1 X95.724 Y106.579 E0.47015
G1 X96.083 Y106.43 E0.48308
G1 F500 X96.29 Y106.285 E0.49317
G1 F417.4 X96.338 Y106.263 E0.49569
G1 F415.2 X96.724 Y106.225 E0.51433
G1 F424 X96.999 Y106.225 E0.52728
G1 F415.2 X97.387 Y106.263 E0.54601
G1 F481 X97.636 Y106.423 E0.55829
G1 F594.1 X97.999 Y106.578 E0.57155
G1 F600 X98.221 Y106.707 E0.58009
G1 X98.531 Y106.944 E0.59307
G1 X98.717 Y107.13 E0.60182
G1 X99.023 Y107.541 E0.61886
G1 X99.087 Y107.668 E0.62359
G1 X99.237 Y108.029 E0.6366
G1 X99.304 Y108.284 E0.64536
G1 X99.363 Y108.8 E0.66264
G1 X99.299 Y109.36 E0.68139
G1 X99.237 Y109.571 E0.6887
G1 X99.087 Y109.932 E0.7017
G1 X98.957 Y110.156 E0.71032
G1 X98.669 Y110.53 E0.72602
G1 X98.531 Y110.657 E0.73225
G1 X98.22 Y110.894 E0.74526
G1 X97.999 Y111.022 E0.75375
G1 X97.635 Y111.174 E0.76687
G1 X97.422 Y111.236 E0.77425
G0 F3600 X97.353 Y110.842
G1 F600 X96.862 Y110.899 E0.79069
G1 X96.401 Y110.846 E0.80613
G1 X96.245 Y110.804 E0.8115
G1 X95.879 Y110.651 E0.82469
G1 X95.747 Y110.575 E0.82976
G1 X95.439 Y110.341 E0.84263
G1 X95.326 Y110.228 E0.84794
G1 X95.086 Y109.914 E0.86109
G1 X95.03 Y109.826 E0.86455
G1 X94.835 Y109.352 E0.8816
G1 X94.768 Y108.876 E0.89759
G1 X94.768 Y108.724 E0.90265
G1 X94.818 Y108.331 E0.91582
G1 X94.858 Y108.181 E0.92099
G1 X95.008 Y107.82 E0.93399
G1 X95.086 Y107.686 E0.93914
G1 X95.326 Y107.372 E0.95229
G1 X95.416 Y107.277 E0.95664
G1 X95.747 Y107.025 E0.97048
G1 X95.879 Y106.949 E0.97554
G1 F601.5 X96.245 Y106.797 E0.98869
G1 X96.373 Y106.759 E0.99312
G1 F600 X96.862 Y106.701 E1.0095
G1 X97.325 Y106.754 E1.025
G1 X97.481 Y106.796 E1.03037
G1 X97.845 Y106.948 E1.04349
G1 X97.978 Y107.025 E1.04861
G1 X98.288 Y107.262 E1.06158
G1 X98.4 Y107.374 E1.06685
G1 X98.679 Y107.745 E1.08229
G1 X98.867 Y108.183 E1.09814
G1 X98.908 Y108.336 E1.10341
G1 X98.963 Y108.8 E1.11895
G1 X98.904 Y109.291 E1.1354
G1 X98.867 Y109.417 E1.13977
G1 X98.717 Y109.779 E1.1528
G1 X98.639 Y109.913 E1.15796
G1 X98.371 Y110.263 E1.17262
G1 X98.288 Y110.339 E1.17636
G1 X97.977 Y110.576 E1.18937
G1 X97.845 Y110.652 E1.19444
G1 X97.481 Y110.804 E1.20756
G1 X97.353 Y110.842 E1.212
G1 F1500 E-0.788
G1 F300 Z0.6
G0 F3600 X101.441 Y113.182 Z0.6
G1 F300 Z0.2
G1 F1500 E1.212
G1 F600 X101.441 Y105.579 E1.46487
G1 F594.1 X97.804 Y105.583 E1.58705
G1 F481 X97.424 Y105.674 E1.60326
G1 F416.7 X96.862 Y105.659 E1.63019
G1 X96.301 Y105.674 E1.65707
G1 F484.8 X95.913 Y105.578 E1.67352
G1 F600 X93.723 Y105.578 E1.74636
G1 X93.863 Y106 E1.76115
G1 X93.864 Y107.512 E1.81144
G1 F518.4 X93.926 Y107.891 E1.82622
G1 F463.3 X93.871 Y108.16 E1.83805
G1 F527.5 X93.686 Y108.412 E1.84987
G1 F600 X93.518 Y108.598 E1.85821
G1 X93.32 Y108.732 E1.86616
G1 X93.181 Y108.79 E1.87117
G1 X93.067 Y108.821 E1.8751
G1 X92.912 Y108.84 E1.8803
G1 X88.883 Y108.841 E2.0143
G1 X88.883 Y113.181 E2.15865
G1 X101.441 Y113.182 E2.57633
G0 F3600 X101.841 Y113.582
G1 F600 X101.841 Y105.179 E2.85581
G1 X93.574 Y105.178 E3.13078
G1 F470.6 X92.863 Y105.29 E3.1613
G1 X93.343 Y105.639 E3.18647
G1 F600 X93.463 Y106 E3.19912
G1 X93.463 Y107.87 E3.26132
G1 X93.436 Y108.023 E3.26648
G1 X93.357 Y108.184 E3.27245
G1 X93.256 Y108.296 E3.27746
G1 X93.137 Y108.376 E3.28223
G1 X92.986 Y108.429 E3.28756
G1 X92.893 Y108.441 E3.29067
G1 X88.483 Y108.441 E3.43735
G1 X88.483 Y113.581 E3.60831
G1 X101.841 Y113.582 E4.0526
G0 F3600 X102.241 Y113.982
;TYPE:WALL-OUTER
G1 F600 X102.241 Y104.779 E4.34339
G1 X88.083 Y104.779 E4.79074
G1 X88.083 Y105.799 E4.82297
G1 X92.863 Y105.8 E4.974
G1 X93.023 Y105.879 E4.97964
G1 X93.063 Y106 E4.98367
G1 X93.063 Y107.851 E5.04215
G1 F601.5 X93.053 Y107.903 E5.04382
G1 X93.028 Y107.956 E5.04567
G1 F600 X92.955 Y108.02 E5.04874
G1 X92.904 Y108.037 E5.05044
G1 X88.083 Y108.041 E5.20276
G1 X88.083 Y113.981 E5.39045
G1 X102.241 Y113.982 E5.8378
G1 F1500 E3.8378
G1 F300 Z0.6
G0 F3600 X97.284 Y110.448 Z0.6
G1 F300 Z0.2
G1 F1500 E5.8378
G1 F600 X96.836 Y110.498 E5.85205
G1 X96.451 Y110.449 E5.86431
G1 X96.399 Y110.435 E5.86601
G1 X95.989 Y110.257 E5.88013
G1 X95.681 Y110.023 E5.89236
G1 X95.385 Y109.642 E5.9076
G1 X95.22 Y109.243 E5.92124
G1 X95.165 Y108.826 E5.93453
G1 X95.214 Y108.385 E5.94855
G1 X95.378 Y107.974 E5.96254
G1 X95.644 Y107.615 E5.97665
G1 X95.681 Y107.577 E5.97833
G1 X96.033 Y107.318 E5.99214
G1 X96.442 Y107.152 E6.00609
G1 X96.888 Y107.102 E6.02027
G1 X97.275 Y107.151 E6.03259
G1 X97.327 Y107.165 E6.03429
G1 X97.691 Y107.317 E6.04676
G1 X98.045 Y107.58 E6.06069
G1 X98.082 Y107.617 E6.06235
G1 X98.335 Y107.949 E6.07553
G1 X98.497 Y108.336 E6.08879
G1 X98.511 Y108.387 E6.09046
G1 X98.563 Y108.8 E6.10361
G1 X98.51 Y109.222 E6.11705
G1 X98.347 Y109.626 E6.13082
G1 X98.084 Y109.983 E6.14483
G1 X98.046 Y110.021 E6.14653
G1 X97.735 Y110.258 E6.15888
G1 X97.284 Y110.448 E6.17435
G1 F1500 E4.17435
G1 F300 Z0.6
G0 F3600 X86.211 Y113.902 Z0.6
G1 F300 Z0.2
G1 F1500 E6.17435
G1 F428.6 X86.211 Y111.456 E6.28255
G1 F430.1 X86.061 Y110.32 E6.33305
G1 F430.9 X85.64 Y109.301 E6.38156
G1 X84.958 Y108.415 E6.43076
G1 X84.073 Y107.734 E6.47989
G1 F430.1 X83.053 Y107.311 E6.52856
G1 X81.927 Y107.165 E6.57861
G1 X80.969 Y107.163 E6.62084
G1 F430.9 X80.434 Y107.233 E6.64458
G1 X79.975 Y107.423 E6.66644
G1 X79.574 Y107.73 E6.68866
G1 X79.261 Y108.138 E6.71128
G1 X79.069 Y108.6 E6.7333
G1 X79.003 Y109.105 E6.7557
G1 F431.7 X79.07 Y109.61 E6.77808
G1 X79.261 Y110.073 E6.80008
G1 F430.9 X79.572 Y110.476 E6.82247
G1 X79.975 Y110.787 E6.84487
G1 X80.431 Y110.976 E6.86659
G1 X81.302 Y111.095 E6.90527
G1 X81.63 Y111.231 E6.92089
G1 X81.917 Y111.45 E6.93678
G1 X82.139 Y111.739 E6.95281
G1 X82.277 Y112.069 E6.96855
G1 F431.7 X82.322 Y112.428 E6.98444
G1 X82.276 Y112.788 E7.00038
G1 X82.138 Y113.12 E7.01617
G1 F430.9 X81.919 Y113.405 E7.03198
G1 X81.632 Y113.624 E7.04787
G1 X81.303 Y113.761 E7.06355
G1 X80.939 Y113.808 E7.0797
G1 X79.722 Y113.648 E7.1337
G1 X78.592 Y113.179 E7.18754
G1 X77.617 Y112.433 E7.24155
G1 X76.866 Y111.453 E7.29588
G1 X76.399 Y110.325 E7.34959
G1 X76.24 Y109.105 E7.40372
G1 X76.399 Y107.885 E7.45786
G1 X76.867 Y106.755 E7.51167
G1 X77.616 Y105.779 E7.5658
G1 X78.593 Y105.03 E7.61997
G1 X79.722 Y104.562 E7.67374
G1 F429.3 X80.976 Y104.401 E7.72957
G1 F428.6 X87.703 Y104.4 E8.02714
G1 X87.703 Y103.84 E8.05192
G1 X80.958 Y103.841 E8.35029
G1 F429.3 X79.574 Y104.023 E8.41193
G1 F430.9 X78.315 Y104.544 E8.47188
G1 X77.222 Y105.384 E8.53253
G1 X76.381 Y106.478 E8.59324
G1 X75.86 Y107.737 E8.6532
G1 X75.68 Y109.105 E8.7139
G1 X75.86 Y110.473 E8.77461
G1 X76.38 Y111.731 E8.83451
G1 X77.224 Y112.83 E8.89548
G1 X78.313 Y113.665 E8.95585
G1 X79.574 Y114.187 E9.0159
G1 X80.936 Y114.368 E9.07636
G1 X81.451 Y114.3 E9.09921
G1 X81.91 Y114.11 E9.12107
G1 X82.311 Y113.804 E9.14326
G1 X82.622 Y113.399 E9.16573
G1 F431.7 X82.814 Y112.936 E9.18775
G1 X82.882 Y112.43 E9.21017
G1 X82.816 Y111.923 E9.23262
G1 F430.9 X82.623 Y111.459 E9.25474
G1 X82.313 Y111.057 E9.27707
G1 X81.908 Y110.745 E9.29957
G1 X81.451 Y110.555 E9.32134
G1 X80.581 Y110.438 E9.35997
G1 X80.254 Y110.301 E9.37556
G1 X79.967 Y110.081 E9.39148
G1 X79.746 Y109.794 E9.40741
G1 F431.7 X79.609 Y109.464 E9.42311
G1 X79.563 Y109.105 E9.439
G1 F430.9 X79.608 Y108.747 E9.45488
G1 X79.746 Y108.416 E9.47066
G1 X79.967 Y108.127 E9.48666
G1 X80.253 Y107.909 E9.50249
G1 X80.581 Y107.772 E9.51813
G1 X80.987 Y107.723 E9.53612
G1 X81.939 Y107.724 E9.57801
G1 X82.905 Y107.851 E9.62088
G1 F430.1 X83.795 Y108.221 E9.66336
G1 F430.9 X84.563 Y108.81 E9.70595
G1 X85.153 Y109.579 E9.74859
G1 X85.523 Y110.469 E9.791
G1 F431.7 X85.65 Y111.424 E9.83331
G1 F430.1 X85.651 Y113.902 E9.94254
G1 F428.6 X86.211 Y113.902 E9.96731
G1 F1500 E7.96731
G1 F300 Z0.6
G0 F3600 X101.081 Y112.822 Z0.6
;TYPE:SKIN
G1 F300 Z0.2
G1 F1500 E9.96731
G1 F600 X89.243 Y112.821 E10.36104
G1 X89.243 Y109.201 E10.48145
G1 X92.938 Y109.199 E10.60434
G1 X93.141 Y109.174 E10.61114
G1 X93.291 Y109.132 E10.61633
G1 X93.485 Y109.054 E10.62328
G1 X93.735 Y108.885 E10.63332
G1 X94.003 Y108.597 E10.6464
G1 X94.011 Y108.654 E10.64832
G1 X94.013 Y108.974 E10.65896
G1 X94.061 Y109.353 E10.67167
G1 X94.106 Y109.567 E10.67894
G1 X94.152 Y109.701 E10.68365
G1 X94.355 Y110.178 E10.70089
G1 X94.479 Y110.373 E10.70858
G1 X94.721 Y110.69 E10.72184
G1 X94.96 Y110.932 E10.73316
G1 X95.284 Y111.179 E10.74671
G1 X95.589 Y111.354 E10.7584
G1 X95.947 Y111.505 E10.77133
G1 X96.282 Y111.595 E10.78286
G1 X96.689 Y111.649 E10.79652
G1 X96.849 Y111.659 E10.80185
G1 X97.021 Y111.65 E10.80758
G1 X97.505 Y111.587 E10.82381
G1 X97.779 Y111.505 E10.83332
G1 X98.134 Y111.355 E10.84614
G1 X98.422 Y111.192 E10.85715
G1 X98.748 Y110.945 E10.87075
G1 X98.937 Y110.772 E10.87928
G1 X99.238 Y110.381 E10.89569
G1 X99.409 Y110.091 E10.90688
G1 X99.572 Y109.702 E10.92091
G1 X99.654 Y109.425 E10.93052
G1 X99.712 Y108.976 E10.94558
G1 X99.723 Y108.81 E10.95111
G1 X99.713 Y108.634 E10.95698
G1 X99.662 Y108.24 E10.97019
G1 X99.577 Y107.913 E10.98143
G1 X99.42 Y107.533 E10.9951
G1 X99.332 Y107.353 E11.00177
G1 X99.004 Y106.913 E11.02002
G1 X98.772 Y106.676 E11.03105
G1 X98.445 Y106.423 E11.0448
G1 X98.142 Y106.249 E11.05642
G1 X97.804 Y106.097 E11.06875
G1 X97.709 Y106.012 E11.07299
G1 X97.842 Y105.945 E11.07794
G1 X98.208 Y105.938 E11.09012
G1 X101.081 Y105.939 E11.18567
G1 X101.081 Y112.822 E11.4146
G1 F1500 E9.4146
G1 F300 Z0.6
G0 F3600 X100.481 Y106.138 Z0.6
G1 F300 Z0.2
G1 F1500 E11.4146
G1 F600 X100.881 Y106.538 E11.43342
G0 F3600 X100.881 Y107.104
G1 F600 X99.915 Y106.138 E11.47886
G0 F3600 X99.349 Y106.138
G1 F600 X100.881 Y107.669 E11.55089
G0 F3600 X100.881 Y108.235
G1 F600 X98.784 Y106.138 E11.64953
G1 F1500 E9.64953
G1 F300 Z0.6
G0 F3600 X99.654 Y107.574 Z0.6
G1 F300 Z0.2
G1 F1500 E11.64953
G1 F600 X100.881 Y108.801 E11.70724
G0 F3600 X100.881 Y109.366
G1 F600 X99.877 Y108.362 E11.75447
G0 F3600 X99.913 Y108.964
G1 F600 X100.881 Y109.932 E11.8
G0 F3600 X100.881 Y110.498
G1 F600 X99.849 Y109.465 E11.84857
G0 F3600 X99.708 Y109.89
G1 F600 X100.881 Y111.063 E11.90374
G0 F3600 X100.881 Y111.629
G1 F600 X99.529 Y110.277 E11.96733
G0 F3600 X99.305 Y110.619
G1 F600 X100.881 Y112.195 E12.04146
G0 F3600 X100.741 Y112.62
G1 F600 X99.055 Y110.934 E12.12077
G0 F3600 X98.75 Y111.195
G1 F600 X100.175 Y112.62 E12.1878
G0 F3600 X99.61 Y112.62
G1 F600 X98.413 Y111.423 E12.2441
G0 F3600 X98.036 Y111.613
G1 F600 X99.044 Y112.62 E12.29149
G0 F3600 X98.478 Y112.62
G1 F600 X97.616 Y111.758 E12.33203
G0 F3600 X97.129 Y111.837
G1 F600 X97.913 Y112.62 E12.36889
G0 F3600 X97.347 Y112.62
G1 F600 X96.559 Y111.833 E12.40593
G0 F3600 X95.828 Y111.667
G1 F600 X96.781 Y112.62 E12.45076
G0 F3600 X96.216 Y112.62
G1 F600 X92.99 Y109.395 E12.60247
G0 F3600 X93.445 Y109.284
G1 F600 X93.987 Y109.827 E12.62799
G1 F1500 E10.62799
G1 F300 Z0.6
G0 F3600 X92.428 Y109.398 Z0.6
G1 F300 Z0.2
G1 F1500 E12.62799
G1 F600 X95.65 Y112.62 E12.77954
G0 F3600 X95.083 Y112.62
G1 F600 X91.862 Y109.398 E12.93107
G0 F3600 X91.297 Y109.399
G1 F600 X94.518 Y112.62 E13.08258
G0 F3600 X93.952 Y112.62
G1 F600 X90.731 Y109.399 E13.23409
G0 F3600 X90.166 Y109.4
G1 F600 X93.386 Y112.62 E13.38554
G0 F3600 X92.821 Y112.62
G1 F600 X89.601 Y109.4 E13.537
G0 F3600 X89.442 Y109.807
G1 F600 X92.255 Y112.62 E13.66932
G0 F3600 X91.689 Y112.62
G1 F600 X89.442 Y110.373 E13.77501
G0 F3600 X89.442 Y110.938
G1 F600 X91.124 Y112.62 E13.85413
G0 F3600 X90.558 Y112.62
G1 F600 X89.442 Y111.504 E13.90662
G0 F3600 X89.442 Y112.07
G1 F600 X89.992 Y112.62 E13.93249
G1 F1500 E11.93249
G1 F300 Z0.6
G0 F3600 X94.253 Y107.576 Z0.6
G1 F300 Z0.2
G1 F1500 E13.93249
G1 F600 X94.225 Y107.485 E13.93566
G1 X94.223 Y106.008 E13.98478
G1 X94.213 Y105.94 E13.98707
G1 X95.875 Y105.939 E14.04235
G1 X96.016 Y106.009 E14.04758
G1 X95.914 Y106.111 E14.05238
G1 X95.565 Y106.257 E14.06496
G1 X95.307 Y106.405 E14.07486
G1 X94.909 Y106.711 E14.09155
G1 X94.736 Y106.893 E14.0999
G1 X94.483 Y107.222 E14.11371
G1 X94.323 Y107.491 E14.12412
G1 X94.253 Y107.576 E14.12778
G0 F3600 X94.731 Y106.61
G1 F600 X94.424 Y106.303 E14.14222
G0 F3600 X94.824 Y106.138
G1 F600 X95.04 Y106.353 E14.15236
G1 F1500 E12.15236
G1 F300 Z0.6
G0 F3600 X97.387 Y123.737 Z0.6
;TYPE:WALL-INNER
G1 F300 Z0.2
G1 F1500 E14.15236
G1 F414.5 X96.999 Y123.774 E14.17112
G1 F424 X96.724 Y123.775 E14.18407
G1 F415.2 X96.338 Y123.737 E14.20271
G1 F481 X96.089 Y123.577 E14.21499
G1 F594.1 X95.724 Y123.421 E14.22832
G1 F600 X95.505 Y123.294 E14.23674
G1 X95.159 Y123.029 E14.25124
G1 X95.008 Y122.871 E14.25851
G1 X94.768 Y122.557 E14.27165
G1 F526.3 X94.406 Y121.908 E14.29983
G1 F468.8 X94.365 Y121.72 E14.30802
G1 F526.3 X94.371 Y121.073 E14.33255
G1 F600 X94.421 Y120.682 E14.34566
G1 X94.452 Y120.536 E14.35063
G1 X94.489 Y120.426 E14.35449
G1 X94.675 Y119.989 E14.37028
G1 X94.768 Y119.843 E14.37604
G1 X95.008 Y119.529 E14.38919
G1 X95.197 Y119.34 E14.39808
G1 X95.506 Y119.106 E14.41097
G1 X95.725 Y118.98 E14.41937
G1 X96.09 Y118.827 E14.43254
G1 X96.304 Y118.764 E14.43995
G1 X96.735 Y118.708 E14.45441
G1 X96.862 Y118.701 E14.45864
G1 X96.988 Y118.708 E14.46284
G1 X97.375 Y118.757 E14.47581
G1 X97.635 Y118.826 E14.48476
G1 X97.999 Y118.978 E14.49788
G1 X98.219 Y119.106 E14.50634
G1 X98.53 Y119.343 E14.51935
G1 X98.669 Y119.471 E14.52563
G1 X98.957 Y119.844 E14.54131
G1 X99.086 Y120.067 E14.54988
G1 X99.235 Y120.426 E14.56281
G1 X99.303 Y120.68 E14.57155
G1 X99.363 Y121.199 E14.58893
G1 X99.299 Y121.76 E14.60771
G1 X99.237 Y121.971 E14.61502
G1 X99.087 Y122.332 E14.62802
G1 X99.023 Y122.459 E14.63275
G1 X98.717 Y122.87 E14.6498
G1 X98.531 Y123.056 E14.65855
G1 X98.221 Y123.293 E14.67152
G1 X97.999 Y123.422 E14.68006
G1 F597 X97.635 Y123.575 E14.69326
G1 F497.9 X97.436 Y123.714 E14.70299
G1 F417.4 X97.387 Y123.737 E14.70558
G0 F3600 X97.353 Y123.242
G1 F600 X96.862 Y123.299 E14.72202
G1 X96.401 Y123.246 E14.73745
G1 X96.245 Y123.204 E14.74283
G1 X95.879 Y123.051 E14.75602
G1 X95.747 Y122.975 E14.76109
G1 X95.416 Y122.723 E14.77492
G1 X95.326 Y122.628 E14.77928
G1 X95.086 Y122.314 E14.79242
