;FLAVOR:Marlin
;TIME:4404
;Filament used: 5.05578m
;Layer height: 0.2
;MINX:6.334
;MINY:8.041
;MINZ:0.3
;MAXX:225.055
;MAXY:223.202
;MAXZ:0.7
;Generated with Cura_SteamEngine 5.4.0-beta.1
M140 S60
M105
M190 S60
M104 S200
M105
M109 S200
M82 ;absolute extrusion mode
G28 ;Home
G1 Z15.0 F6000 ;Move the platform down 15mm
;Prime the extruder
G92 E0
G1 F200 E3
G92 E0
G92 E0
G92 E0
G1 F1500 E-6.5
;LAYER_COUNT:3
;LAYER:0
M107
;MESH:Swanky Blad-Borwo (1).stl
G0 F3600 X153.876 Y149.907 Z0.3
;TYPE:WALL-INNER
G1 F1500 E0
G1 F1800 X153.651 Y149.93 E0.01128
G1 X153.371 Y149.844 E0.0259
G1 X88.97 Y90.32 E4.40107
G1 X88.805 Y90.06 E4.41643
G1 X88.778 Y89.868 E4.42611
G1 X88.883 Y89.538 E4.44338
G1 X89.037 Y89.384 E4.45425
G1 X92.074 Y87.686 E4.62784
G1 X93.127 Y87.205 E4.6856
G1 X94.1 Y86.778 E4.73861
G1 X95.176 Y86.364 E4.79613
G1 X97.291 Y85.692 E4.90684
G1 X98.379 Y85.414 E4.96287
G1 X98.906 Y85.3 E4.98977
G1 X99.991 Y85.094 E5.04486
G1 X100.529 Y85.013 E5.07201
G1 X101.849 Y84.855 E5.13833
G1 X103.235 Y84.785 E5.20757
G1 X103.769 Y84.78 E5.23421
G1 X104.837 Y84.8 E5.2875
G1 X105.378 Y84.835 E5.31455
G1 X106.44 Y84.933 E5.36776
G1 X106.969 Y85.011 E5.39444
G1 X107.963 Y85.178 E5.44472
G1 X109.586 Y85.566 E5.52798
G1 X111.017 Y86.035 E5.6031
G1 X112.51 Y86.65 E5.68366
G1 X113.934 Y87.375 E5.76338
G1 X116.06 Y88.72 E5.88889
G1 X118.083 Y90.332 E6.01795
G1 X118.623 Y90.839 E6.0549
G1 X119.924 Y92.107 E6.14554
G1 X120.481 Y92.714 E6.18664
G1 X121.669 Y94.084 E6.27711
G1 X122.178 Y94.72 E6.31775
G1 X123.294 Y96.203 E6.41034
G1 X123.76 Y96.853 E6.45024
G1 X124.811 Y98.411 E6.54401
G1 X125.669 Y99.77 E6.62419
G1 X127.593 Y102.982 E6.81098
G1 X131.825 Y110.492 E7.24105
G1 X133.455 Y113.23 E7.40003
G1 X134.285 Y114.546 E7.47765
G1 X135.978 Y117.024 E7.62738
G1 X136.851 Y118.206 E7.70069
G1 X137.328 Y118.819 E7.73944
G1 X138.199 Y119.9 E7.8087
G1 X138.678 Y120.462 E7.84554
G1 X140.972 Y123.016 E8.01681
G1 X144.175 Y126.336 E8.24696
G1 X145.944 Y128.232 E8.37633
G1 X146.798 Y129.216 E8.44134
G1 X147.631 Y130.214 E8.50619
G1 X148.869 Y131.878 E8.60967
G1 X149.605 Y133.003 E8.67674
G1 X150.013 Y133.654 E8.71507
G1 X150.69 Y134.878 E8.78485
G1 X151.064 Y135.604 E8.82559
G1 X151.661 Y136.903 E8.89692
G1 X152.005 Y137.743 E8.9422
G1 X152.537 Y139.177 E9.01851
G1 X152.807 Y140.068 E9.06496
G1 X153.251 Y141.609 E9.14497
G1 X153.792 Y144.148 E9.27448
G1 X154.156 Y146.691 E9.40265
G1 X154.363 Y149.333 E9.53486
G1 X154.31 Y149.543 E9.54567
G1 X154.126 Y149.78 E9.56063
G1 X153.876 Y149.907 E9.57462
G0 F3600 X154.043 Y150.254
G0 X154.237 Y158.522
G0 X153.698 Y161.919
G0 X153.066 Y164.865
G0 X152.282 Y167.739
G0 X150.936 Y171.672
G0 X150.296 Y171.186
G0 X150.65 Y170.803
G1 F1800 X150.454 Y170.8 E9.5844
G1 X150.208 Y170.7 E9.59765
G1 X76.912 Y102.955 E14.57711
G1 X76.796 Y102.809 E14.58641
G1 X76.72 Y102.549 E14.59992
G1 X76.751 Y102.291 E14.61289
G1 X78.182 Y99.991 E14.74803
G1 X79.713 Y97.869 E14.87858
G1 X81.403 Y95.848 E15.01001
G1 X83.249 Y93.937 E15.14257
G1 X83.456 Y93.826 E15.15429
G1 X83.693 Y93.804 E15.16616
G1 X83.846 Y93.84 E15.17401
G1 X84.039 Y93.96 E15.18534
G1 X153.786 Y158.427 E19.92377
G1 X153.88 Y158.565 E19.9321
G1 X153.95 Y158.823 E19.94544
G1 X153.465 Y161.857 E20.09872
G1 X152.833 Y164.815 E20.24963
G1 X152.046 Y167.689 E20.39829
G1 X151.121 Y170.43 E20.54262
G1 X151.033 Y170.582 E20.55138
G1 X150.891 Y170.712 E20.56099
G1 X150.65 Y170.803 E20.57384
G0 F3600 X150.296 Y171.186
G0 X148.239 Y176.977
G0 X147.679 Y177.351
G1 F1800 X146.495 Y178.961 E20.67354
G1 X145.417 Y180.16 E20.75398
G1 X145.037 Y180.529 E20.78041
G1 X144.043 Y181.417 E20.84691
G1 X142.68 Y182.352 E20.92937
G1 X141.27 Y183.04 E21.00764
G1 X139.826 Y183.478 E21.08293
G1 X138.383 Y183.664 E21.15551
G1 X137.853 Y183.666 E21.18195
G1 X136.835 Y183.628 E21.23278
G1 X136.272 Y183.538 E21.26122
G1 X135.207 Y183.333 E21.31533
G1 X134.689 Y183.175 E21.34235
G1 X133.611 Y182.811 E21.39911
G1 X133.096 Y182.584 E21.42719
G1 X132.041 Y182.091 E21.48529
G1 X131.568 Y181.831 E21.51222
G1 X130.486 Y181.199 E21.57473
G1 X130.032 Y180.903 E21.60177
G1 X128.951 Y180.155 E21.66736
G1 X128.452 Y179.788 E21.69826
G1 X127.402 Y178.959 E21.765
G1 X126.514 Y178.208 E21.82303
G1 X125.423 Y177.256 E21.89526
G1 X124.358 Y176.256 E21.96815
G1 X123.45 Y175.384 E22.03096
G1 X121.287 Y173.176 E22.18516
G1 X120.419 Y172.27 E22.24776
G1 X118.274 Y169.94 E22.40576
G1 X114.451 Y165.726 E22.68963
G1 X111.492 Y162.522 E22.90721
G1 X110.496 Y161.49 E22.97877
G1 X108.565 Y159.525 E23.11621
G1 X107.603 Y158.6 E23.1828
G1 X105.647 Y156.78 E23.31609
G1 X104.648 Y155.914 E23.38205
G1 X102.741 Y154.326 E23.50586
G1 X102.279 Y153.959 E23.5353
G1 X99.929 Y152.228 E23.68091
G1 X98.988 Y151.588 E23.73769
G1 X97.184 Y150.406 E23.84529
G1 X96.332 Y149.883 E23.89516
G1 X94.466 Y148.772 E24.00351
G1 X90.022 Y146.224 E24.25908
G1 X88.285 Y145.212 E24.35937
G1 X86.523 Y144.115 E24.46293
G1 X85.664 Y143.542 E24.51444
G1 X83.95 Y142.332 E24.61911
G1 X83.116 Y141.684 E24.67181
G1 X81.5 Y140.331 E24.77696
G1 X81.07 Y139.946 E24.80575
G1 X79.18 Y138.021 E24.94034
G1 X78.743 Y137.521 E24.97347
G1 X78.041 Y136.672 E25.02843
G1 X77.64 Y136.142 E25.06159
G1 X76.974 Y135.227 E25.11805
G1 X75.981 Y133.675 E25.20997
G1 X75.434 Y132.682 E25.26653
G1 X75.08 Y132.016 E25.30416
G1 X74.585 Y130.961 E25.3623
G1 X74.291 Y130.276 E25.39949
G1 X73.863 Y129.185 E25.45796
G1 X73.249 Y127.287 E25.55748
G1 X72.773 Y125.365 E25.65627
G1 X72.437 Y123.424 E25.75455
G1 X72.282 Y122.077 E25.82219
G1 X72.223 Y121.361 E25.85803
G1 X72.16 Y120.066 E25.92272
G1 X72.152 Y119.302 E25.96084
G1 X72.173 Y117.951 E26.02825
G1 X72.218 Y117.213 E26.06513
G1 X72.325 Y115.867 E26.1325
G1 X72.621 Y113.736 E26.23983
G1 X73.056 Y111.619 E26.34766
G1 X73.653 Y109.434 E26.46066
G1 X73.87 Y109.185 E26.47714
G1 X74.064 Y109.099 E26.48773
G1 X74.251 Y109.083 E26.49709
G1 X74.538 Y109.17 E26.51205
G1 X147.597 Y176.692 E31.47527
G1 X147.691 Y176.861 E31.48492
G1 X147.732 Y177.115 E31.49776
G1 X147.679 Y177.351 E31.50983
G0 F3600 X147.92 Y177.529
G0 X210.878 Y218.158
G0 X211.007 Y218.427
G1 F1800 X211.021 Y218.433 E31.51059
G1 X213.121 Y217.22 E31.63158
G1 X215.063 Y215.895 E31.74887
G1 X216.876 Y214.424 E31.86534
G1 X218.528 Y212.829 E31.97991
G1 X220.001 Y211.112 E32.09277
G1 X221.302 Y209.265 E32.20549
G1 X222.399 Y207.314 E32.31715
G1 X223.287 Y205.26 E32.42879
G1 X223.958 Y203.114 E32.54097
G1 X224.411 Y200.889 E32.65425
G1 X224.646 Y198.573 E32.77039
G1 X224.655 Y196.203 E32.88863
G1 X224.446 Y193.776 E33.01016
G1 X224.022 Y191.316 E33.1347
G1 X223.388 Y188.814 E33.26347
G1 X222.555 Y186.302 E33.39551
G1 X221.532 Y183.789 E33.53087
G1 X220.331 Y181.283 E33.66952
G1 X218.968 Y178.805 E33.81061
G1 X217.452 Y176.361 E33.95409
G1 X215.807 Y173.966 E34.09905
G1 X214.045 Y171.632 E34.24495
G1 X212.181 Y169.365 E34.39138
G1 X210.24 Y167.181 E34.53715
G1 X208.238 Y165.089 E34.68161
G1 X206.194 Y163.095 E34.82407
G1 X204.124 Y161.206 E34.96388
G1 X202.044 Y159.428 E35.1004
G1 X199.98 Y157.767 E35.23258
G1 X197.939 Y156.226 E35.36017
G1 X195.939 Y154.804 E35.4826
G1 X193.996 Y153.504 E35.59923
G1 X192.117 Y152.321 E35.71001
G1 X190.307 Y151.25 E35.81493
G1 X188.582 Y150.288 E35.91347
G1 X186.935 Y149.424 E36.00626
G1 X185.375 Y148.653 E36.09307
G1 X183.893 Y147.952 E36.17487
G1 X182.484 Y147.312 E36.25207
G1 X179.829 Y146.133 E36.397
G1 X177.367 Y144.98 E36.53264
G1 X174.805 Y143.617 E36.67742
G1 X173.498 Y142.83 E36.75353
G1 X172.134 Y141.935 E36.83492
G1 X170.76 Y140.968 E36.91875
G1 X169.311 Y139.884 E37.00903
G1 X167.792 Y138.679 E37.10576
G1 X166.205 Y137.357 E37.20881
G1 X164.571 Y135.944 E37.31658
G1 X162.865 Y134.416 E37.43084
G1 X161.113 Y132.798 E37.54982
G1 X159.311 Y131.09 E37.67369
G1 X155.611 Y127.472 E37.93187
G1 X151.856 Y123.65 E38.19918
G1 X148.137 Y119.715 E38.4693
G1 X144.539 Y115.734 E38.73702
G1 X141.122 Y111.731 E38.99959
G1 X137.988 Y107.764 E39.25182
G1 X135.095 Y103.729 E39.49952
G1 X132.521 Y99.672 E39.73922
G1 X130.219 Y95.48 E39.97782
G1 X128.198 Y91.192 E40.21432
G1 X126.382 Y86.716 E40.45531
G1 X124.713 Y82.081 E40.70108
G1 X121.474 Y72.441 E41.20845
G1 X119.643 Y67.367 E41.47757
G1 X117.587 Y62.378 E41.74678
G1 X116.434 Y59.891 E41.88354
G1 X115.179 Y57.416 E42.02199
G1 X113.814 Y54.968 E42.16182
G1 X112.335 Y52.551 E42.30319
G1 X110.73 Y50.172 E42.44636
G1 X108.999 Y47.838 E42.59134
G1 X107.139 Y45.557 E42.73818
G1 X105.168 Y43.346 E42.88595
G1 X103.028 Y41.148 E43.039
G1 X100.782 Y39.027 E43.19312
G1 X98.42 Y36.971 E43.34935
G1 X95.95 Y34.977 E43.50772
G1 X93.377 Y33.043 E43.66831
G1 X90.714 Y31.176 E43.83056
G1 X85.161 Y27.624 E44.15943
G1 X79.397 Y24.329 E44.49067
G1 X73.521 Y21.282 E44.8209
G1 X67.649 Y18.493 E45.14522
G1 X61.876 Y15.97 E45.45954
G1 X56.281 Y13.733 E45.76016
G1 X53.575 Y12.733 E45.90408
G1 X50.933 Y11.819 E46.04356
G1 X48.397 Y11.007 E46.17641
G1 X45.817 Y10.259 E46.31042
G1 X43.452 Y9.664 E46.43209
G1 X41.112 Y9.165 E46.55146
G1 X38.799 Y8.781 E46.66843
G1 X36.657 Y8.547 E46.77593
G1 X34.543 Y8.441 E46.88154
G1 X32.508 Y8.479 E46.98308
G1 X30.53 Y8.667 E47.08221
G1 X28.627 Y9.008 E47.17866
G1 X26.798 Y9.506 E47.27323
G1 X25.026 Y10.172 E47.36767
G1 X23.306 Y11.004 E47.463
G1 X21.655 Y11.998 E47.55914
G1 X20.078 Y13.154 E47.65669
G1 X18.552 Y14.486 E47.75775
G1 X17.086 Y15.991 E47.86257
G1 X15.727 Y17.626 E47.96864
G1 X14.429 Y19.43 E48.07952
G1 X13.213 Y21.383 E48.19429
G1 X12.091 Y23.476 E48.31277
G1 X11.06 Y25.706 E48.43534
G1 X10.128 Y28.061 E48.5617
G1 X9.313 Y30.499 E48.68995
G1 X8.586 Y33.106 E48.82497
G1 X7.981 Y35.788 E48.96214
G1 X7.482 Y38.605 E49.10487
G1 X7.12 Y41.403 E49.24563
G1 X6.87 Y44.321 E49.39174
G1 X6.739 Y47.302 E49.54061
G1 X6.734 Y50.335 E49.69192
G1 X6.848 Y53.41 E49.84544
G1 X7.082 Y56.522 E50.00114
G1 X7.438 Y59.662 E50.1588
G1 X7.904 Y62.771 E50.31564
G1 X8.501 Y65.992 E50.47907
G1 X9.204 Y69.164 E50.64116
G1 X10.017 Y72.332 E50.80434
G1 X10.939 Y75.488 E50.96837
G1 X11.945 Y78.567 E51.12998
G1 X13.1 Y81.766 E51.29966
G1 X14.313 Y84.817 E51.46346
G1 X15.626 Y87.857 E51.62867
G1 X17.029 Y90.86 E51.79403
G1 X18.514 Y93.81 E51.95881
G1 X20.079 Y96.701 E52.12282
G1 X23.436 Y102.331 E52.44984
G1 X27.051 Y107.694 E52.77251
G1 X30.901 Y112.785 E53.09095
G1 X34.948 Y117.585 E53.40418
G1 X39.157 Y122.086 E53.71162
G1 X43.5 Y126.294 E54.01332
G1 X47.895 Y130.153 E54.30512
G1 X52.345 Y133.718 E54.58959
G1 X56.796 Y136.974 E54.86472
G1 X61.193 Y139.916 E55.12866
G1 X65.488 Y142.546 E55.37992
G1 X69.64 Y144.874 E55.6174
G1 X73.6 Y146.913 E55.83962
G1 X77.348 Y148.693 E56.04663
G1 X80.897 Y150.271 E56.2404
G1 X84.199 Y151.689 E56.41969
G1 X87.381 Y153.082 E56.59298
G1 X90.489 Y154.568 E56.76485
G1 X93.615 Y156.285 E56.94279
G1 X95.219 Y157.275 E57.03682
G1 X96.874 Y158.382 E57.13616
G1 X98.584 Y159.612 E57.24125
G1 X100.355 Y160.974 E57.35271
G1 X102.202 Y162.482 E57.47167
G1 X104.134 Y164.139 E57.59866
G1 X106.153 Y165.948 E57.7339
G1 X108.255 Y167.907 E57.87725
G1 X110.444 Y170.004 E58.02849
G1 X112.714 Y172.233 E58.18721
G1 X115.056 Y174.579 E58.35259
G1 X117.463 Y177.023 E58.52373
G1 X132.624 Y192.599 E59.60816
G1 X137.58 Y197.543 E59.95741
G1 X140.045 Y199.927 E60.12849
G1 X142.351 Y202.107 E60.28681
G1 X144.629 Y204.193 E60.44091
G1 X146.832 Y206.134 E60.58739
G1 X148.944 Y207.913 E60.72516
G1 X150.968 Y209.528 E60.85435
G1 X152.902 Y210.982 E60.97506
G1 X154.752 Y212.275 E61.08767
G1 X156.518 Y213.416 E61.19256
G1 X158.212 Y214.415 E61.29068
G1 X159.851 Y215.293 E61.38344
G1 X161.439 Y216.062 E61.47147
G1 X164.539 Y217.348 E61.63891
G1 X167.6 Y218.401 E61.8004
G1 X170.82 Y219.363 E61.96807
G1 X174.186 Y220.263 E62.1419
G1 X177.804 Y221.119 E62.32738
G1 X181.691 Y221.881 E62.525
G1 X185.872 Y222.47 E62.73565
G1 X188.049 Y222.668 E62.84471
G1 X190.287 Y222.783 E62.95651
G1 X192.572 Y222.802 E63.07051
G1 X194.901 Y222.715 E63.18679
G1 X197.256 Y222.508 E63.30473
G1 X199.631 Y222.175 E63.42438
G1 X201.99 Y221.708 E63.54435
G1 X204.339 Y221.096 E63.66546
G1 X206.64 Y220.348 E63.78617
G1 X208.883 Y219.45 E63.90671
G1 X211.007 Y218.427 E64.02432
G0 F3600 X211.181 Y218.787
;TYPE:WALL-OUTER
G1 F1800 X211.195 Y218.794 E64.02511
G1 X213.334 Y217.559 E64.14833
G1 X215.302 Y216.216 E64.2672
G1 X217.142 Y214.724 E64.38538
G1 X218.82 Y213.104 E64.50175
G1 X220.317 Y211.358 E64.61649
G1 X221.641 Y209.479 E64.73117
G1 X222.758 Y207.492 E64.84489
G1 X223.663 Y205.4 E64.95861
G1 X224.346 Y203.214 E65.07287
G1 X224.807 Y200.949 E65.18818
G1 X225.046 Y198.594 E65.30628
G1 X225.055 Y196.187 E65.42637
G1 X224.843 Y193.725 E65.54965
G1 X224.414 Y191.233 E65.6758
G1 X223.772 Y188.702 E65.80608
G1 X222.931 Y186.164 E65.93947
G1 X221.898 Y183.627 E66.07613
G1 X220.687 Y181.1 E66.21593
G1 X219.314 Y178.603 E66.3581
G1 X217.787 Y176.142 E66.50259
G1 X216.131 Y173.732 E66.64848
G1 X214.359 Y171.384 E66.79523
G1 X212.485 Y169.105 E66.94244
G1 X210.534 Y166.91 E67.08895
G1 X208.522 Y164.807 E67.23415
G1 X206.468 Y162.804 E67.37729
G1 X204.389 Y160.906 E67.51773
G1 X202.3 Y159.12 E67.65485
G1 X200.226 Y157.451 E67.78767
G1 X198.175 Y155.903 E67.91586
G1 X196.166 Y154.475 E68.03883
G1 X194.214 Y153.168 E68.15603
G1 X192.325 Y151.979 E68.26739
G1 X190.506 Y150.903 E68.37283
G1 X188.772 Y149.936 E68.47188
G1 X187.117 Y149.068 E68.56512
G1 X185.549 Y148.293 E68.65238
G1 X184.061 Y147.589 E68.73451
G1 X182.648 Y146.947 E68.81194
G1 X179.999 Y145.771 E68.95653
G1 X177.555 Y144.627 E69.09116
G1 X174.997 Y143.266 E69.23572
G1 X173.708 Y142.489 E69.31081
G1 X172.364 Y141.608 E69.39098
G1 X171 Y140.648 E69.4742
G1 X169.559 Y139.57 E69.56398
G1 X168.048 Y138.371 E69.66021
G1 X166.467 Y137.055 E69.76284
G1 X164.838 Y135.646 E69.87029
G1 X163.137 Y134.122 E69.98424
G1 X161.388 Y132.508 E70.10297
G1 X159.591 Y130.804 E70.22652
G1 X155.897 Y127.192 E70.48428
G1 X152.147 Y123.375 E70.75123
G1 X148.434 Y119.447 E71.0209
G1 X144.843 Y115.474 E71.28808
G1 X141.422 Y111.465 E71.55101
G1 X138.313 Y107.531 E71.80117
G1 X135.433 Y103.515 E72.04772
G1 X132.86 Y99.46 E72.28732
G1 X130.581 Y95.31 E72.52353
G1 X128.562 Y91.026 E72.7598
G1 X126.758 Y86.58 E72.99918
G1 X125.092 Y81.953 E73.24453
G1 X121.852 Y72.309 E73.7521
G1 X120.016 Y67.223 E74.02187
G1 X117.953 Y62.218 E74.29195
G1 X116.794 Y59.717 E74.42947
G1 X115.532 Y57.228 E74.5687
G1 X114.16 Y54.766 E74.70931
G1 X112.671 Y52.335 E74.85154
G1 X111.056 Y49.941 E74.99561
G1 X109.315 Y47.592 E75.14148
G1 X107.443 Y45.297 E75.28924
G1 X105.461 Y43.073 E75.43786
G1 X103.309 Y40.863 E75.59176
G1 X101.051 Y38.731 E75.74669
G1 X98.677 Y36.665 E75.9037
G1 X96.196 Y34.661 E76.06281
G1 X93.612 Y32.719 E76.22408
G1 X90.937 Y30.844 E76.38705
G1 X85.368 Y27.282 E76.71686
G1 X79.589 Y23.977 E77.049
G1 X73.699 Y20.924 E77.37998
G1 X67.815 Y18.129 E77.70497
G1 X62.03 Y15.601 E78.01994
G1 X56.425 Y13.359 E78.32111
G1 X53.71 Y12.356 E78.46551
G1 X51.059 Y11.439 E78.60546
G1 X48.514 Y10.625 E78.73877
G1 X45.921 Y9.873 E78.87346
G1 X43.542 Y9.274 E78.99586
G1 X41.186 Y8.772 E79.11604
G1 X38.853 Y8.385 E79.23402
G1 X36.689 Y8.148 E79.34263
G1 X34.549 Y8.041 E79.44953
G1 X32.485 Y8.079 E79.55252
G1 X30.476 Y8.271 E79.65321
G1 X28.539 Y8.618 E79.75138
G1 X26.675 Y9.125 E79.84776
G1 X24.868 Y9.804 E79.94406
G1 X23.115 Y10.652 E80.04121
G1 X21.433 Y11.665 E80.13917
G1 X19.828 Y12.842 E80.23847
G1 X18.277 Y14.195 E80.34115
G1 X16.788 Y15.723 E80.4476
G1 X15.411 Y17.381 E80.55512
G1 X14.097 Y19.207 E80.66736
G1 X12.867 Y21.183 E80.78348
G1 X11.733 Y23.298 E80.90321
G1 X10.692 Y25.548 E81.02689
G1 X9.752 Y27.924 E81.15437
G1 X8.931 Y30.382 E81.28366
G1 X8.198 Y33.008 E81.41968
G1 X7.589 Y35.709 E81.55782
G1 X7.086 Y38.545 E81.70151
G1 X6.722 Y41.36 E81.84312
G1 X6.471 Y44.295 E81.99009
G1 X6.339 Y47.293 E82.1398
G1 X6.334 Y50.342 E82.29192
G1 X6.448 Y53.432 E82.44618
G1 X6.684 Y56.56 E82.60268
G1 X7.042 Y59.714 E82.76105
G1 X7.51 Y62.837 E82.91859
G1 X8.109 Y66.072 E83.08273
G1 X8.815 Y69.257 E83.24549
G1 X9.631 Y72.438 E83.40933
G1 X10.557 Y75.606 E83.57399
G1 X11.567 Y78.697 E83.73623
G1 X12.726 Y81.908 E83.90654
G1 X13.943 Y84.97 E84.07093
G1 X15.261 Y88.021 E84.23674
G1 X16.669 Y91.035 E84.40271
