;FLAVOR:Marlin
;TIME:9345
;Filament used: 9.9924m
;Layer height: 0.2
;MINX:0.082
;MINY:1.037
;MINZ:0.3
;MAXX:229.783
;MAXY:227.471
;MAXZ:1.3
;Generated with Cura_SteamEngine 5.4.0-beta.1
M140 S60
M105
M190 S60
M104 S200
M105
M109 S200
M82 ;absolute extrusion mode
G28 ;Home
G1 Z15.0 F6000 ;Move the platform down 15mm
;Prime the extruder
G92 E0
G1 F200 E3
G92 E0
G92 E0
G92 E0
G1 F1500 E-6.5
;LAYER_COUNT:6
;LAYER:0
M107
G0 F3600 X10.628 Y9.568 Z0.3
;TYPE:SKIRT
G1 F1500 E0
G1 F1800 X11.212 Y8.965 E0.04188
G1 X11.887 Y8.337 E0.08788
G1 X13.075 Y7.28 E0.16721
G1 X14.026 Y6.545 E0.22717
G1 X15.206 Y5.683 E0.30008
G1 X16.399 Y4.935 E0.37033
G1 X17.863 Y4.082 E0.45486
G1 X19.44 Y3.346 E0.54169
G1 X20.333 Y2.95 E0.59042
G1 X21.981 Y2.378 E0.67745
G1 X22.617 Y2.168 E0.71087
G1 X23.151 Y2.021 E0.7385
G1 X24.557 Y1.687 E0.8106
G1 X25.26 Y1.53 E0.84654
G1 X25.906 Y1.42 E0.87923
G1 X27.951 Y1.156 E0.9821
G1 X29.28 Y1.081 E1.04851
G1 X30.729 Y1.037 E1.12083
G1 X31.89 Y1.073 E1.17878
G1 X32.929 Y1.128 E1.23069
G1 X33.843 Y1.195 E1.27641
G1 X34.582 Y1.287 E1.31357
G1 X35.771 Y1.452 E1.37346
G1 X36.865 Y1.63 E1.42875
G1 X38.616 Y2.009 E1.51813
G1 X39.665 Y2.258 E1.57192
G1 X41.926 Y2.937 E1.6897
G1 X43.328 Y3.426 E1.76378
G1 X45.051 Y4.079 E1.85571
G1 X45.909 Y4.443 E1.90221
G1 X47.93 Y5.352 E2.01276
G1 X48.634 Y5.703 E2.05201
G1 X49.992 Y6.401 E2.12819
G1 X50.826 Y6.847 E2.17537
G1 X52.721 Y7.943 E2.28459
G1 X53.484 Y8.401 E2.32898
G1 X55.34 Y9.6 E2.43922
G1 X56.279 Y10.23 E2.49564
G1 X57.696 Y11.243 E2.58254
G1 X59.402 Y12.519 E2.68882
G1 X60.257 Y13.188 E2.74299
G1 X61.8 Y14.442 E2.84218
G1 X62.707 Y15.211 E2.90151
G1 X64.112 Y16.45 E2.99497
G1 X65.01 Y17.271 E3.05567
G1 X66.344 Y18.536 E3.14739
G1 X67.218 Y19.394 E3.20849
G1 X68.468 Y20.662 E3.29732
G1 X69.326 Y21.564 E3.35943
G1 X70.45 Y22.783 E3.44215
G1 X71.325 Y23.762 E3.50766
G1 X72.326 Y24.921 E3.58407
G1 X73.166 Y25.923 E3.6493
G1 X74.1 Y27.075 E3.72329
G1 X74.842 Y28.018 E3.78315
G1 X75.774 Y29.24 E3.85983
G1 X76.406 Y30.096 E3.91291
G1 X77.311 Y31.357 E3.99035
G1 X77.819 Y32.087 E4.03472
G1 X78.701 Y33.394 E4.11338
G1 X79.184 Y34.133 E4.15743
G1 X79.952 Y35.342 E4.22889
G1 X80.386 Y36.048 E4.27023
G1 X81.443 Y37.837 E4.3739
G1 X82.136 Y39.07 E4.44446
G1 X83.026 Y40.731 E4.53848
G1 X85.065 Y44.733 E4.76256
G1 X86.359 Y47.106 E4.89741
G1 X87.754 Y49.495 E5.03543
G1 X89.19 Y51.805 E5.17113
G1 X90.704 Y54.094 E5.30805
G1 X92.288 Y56.346 E5.44541
G1 X93.923 Y58.536 E5.58176
G1 X95.621 Y60.682 E5.71828
G1 X97.368 Y62.766 E5.85395
G1 X99.207 Y64.838 E5.99217
G1 X101.055 Y66.805 E6.12682
G1 X103.062 Y68.823 E6.26881
G1 X104.204 Y69.939 E6.34847
G1 X105.612 Y71.287 E6.44572
G1 X108.125 Y73.647 E6.61772
G1 X109.588 Y74.993 E6.7169
G1 X112.052 Y77.215 E6.88243
G1 X113.745 Y78.707 E6.99501
G1 X115.858 Y80.528 E7.13418
G1 X117.959 Y82.288 E7.27091
G1 X118.488 Y82.718 E7.30492
G1 X120.687 Y84.457 E7.44479
G1 X122.86 Y86.075 E7.57996
G1 X125.101 Y87.648 E7.71655
G1 X127.375 Y89.152 E7.85257
G1 X129.74 Y90.621 E7.99147
G1 X132.081 Y91.984 E8.12662
G1 X134.477 Y93.29 E8.26276
G1 X136.92 Y94.533 E8.39951
G1 X139.413 Y95.715 E8.53716
G1 X141.891 Y96.804 E8.6722
G1 X144.493 Y97.86 E8.8123
G1 X146.989 Y98.793 E8.94524
G1 X149.6 Y99.686 E9.08291
G1 X151.67 Y100.336 E9.19115
G1 X159.925 Y102.828 E9.62135
G1 X161.06 Y103.185 E9.68071
G1 X165.004 Y104.475 E9.88774
G1 X166.123 Y104.861 E9.94679
G1 X170.394 Y106.47 E10.17449
G1 X171.351 Y106.847 E10.22581
G1 X172.93 Y107.522 E10.31148
G1 X174.609 Y108.279 E10.40337
G1 X175.555 Y108.725 E10.45555
G1 X177.387 Y109.635 E10.5576
G1 X178.199 Y110.058 E10.60328
G1 X180.061 Y111.079 E10.70922
G1 X181.133 Y111.697 E10.77096
G1 X182.061 Y112.248 E10.8248
G1 X183.742 Y113.317 E10.92419
G1 X184.67 Y113.927 E10.97959
G1 X186.292 Y115.065 E11.07844
G1 X187.185 Y115.714 E11.13352
G1 X188.834 Y116.987 E11.23745
G1 X189.62 Y117.614 E11.28761
G1 X191.301 Y119.039 E11.39756
G1 X192.18 Y119.809 E11.45586
G1 X193.755 Y121.276 E11.56324
G1 X194.535 Y122.025 E11.61719
G1 X195.852 Y123.361 E11.71078
G1 X197.25 Y124.837 E11.81221
G1 X198.191 Y125.871 E11.88196
G1 X199.431 Y127.29 E11.97597
G1 X200.409 Y128.452 E12.05175
G1 X201.538 Y129.843 E12.14113
G1 X202.559 Y131.15 E12.22387
G1 X203.61 Y132.539 E12.31077
G1 X204.651 Y133.965 E12.39885
G1 X205.338 Y134.938 E12.45828
G1 X208.471 Y139.649 E12.74054
G1 X209.057 Y140.561 E12.79462
G1 X211.926 Y145.382 E13.07451
G1 X213.009 Y147.294 E13.18414
G1 X215.325 Y151.592 E13.42772
G1 X216.141 Y153.173 E13.51648
G1 X218.37 Y157.686 E13.7676
G1 X219.09 Y159.206 E13.85151
G1 X221.078 Y163.574 E14.09094
G1 X221.758 Y165.137 E14.17598
G1 X223.58 Y169.512 E14.41242
G1 X224.101 Y170.811 E14.48225
G1 X224.73 Y172.445 E14.5696
G1 X225.136 Y173.533 E14.62754
G1 X225.723 Y175.16 E14.71383
G1 X226.124 Y176.314 E14.77478
G1 X226.609 Y177.761 E14.85092
G1 X227.043 Y179.124 E14.92228
G1 X227.378 Y180.231 E14.97998
G1 X227.862 Y181.929 E15.06807
G1 X228.07 Y182.712 E15.10849
G1 X228.561 Y184.711 E15.21118
G1 X228.929 Y186.404 E15.29762
G1 X229.205 Y187.941 E15.37553
G1 X229.356 Y188.879 E15.42293
G1 X229.55 Y190.406 E15.49972
G1 X229.626 Y191.113 E15.5352
G1 X229.7 Y192.086 E15.58388
G1 X229.767 Y193.322 E15.64564
G1 X229.783 Y194.732 E15.71599
G1 X229.76 Y196.083 E15.7834
G1 X229.642 Y197.518 E15.85523
G1 X229.557 Y198.338 E15.89636
G1 X229.46 Y198.985 E15.929
G1 X229.192 Y200.521 E16.00679
G1 X228.812 Y202.039 E16.08486
G1 X228.594 Y202.812 E16.12493
G1 X228.294 Y203.694 E16.17141
G1 X227.815 Y204.976 E16.23969
G1 X227.386 Y205.936 E16.29215
G1 X226.919 Y206.916 E16.34631
G1 X226.371 Y207.907 E16.4028
G1 X225.631 Y209.145 E16.47476
G1 X225.139 Y209.864 E16.51822
G1 X224.298 Y211.036 E16.59019
G1 X223.26 Y212.288 E16.67133
G1 X222.594 Y213.045 E16.72163
G1 X221.614 Y214.047 E16.79156
G1 X220.769 Y214.865 E16.85023
G1 X219.369 Y216.079 E16.94268
G1 X218.265 Y216.952 E17.0129
G1 X217.219 Y217.73 E17.07794
G1 X216.245 Y218.396 E17.1368
G1 X215.077 Y219.155 E17.2063
G1 X214.058 Y219.764 E17.26552
G1 X212.658 Y220.554 E17.34572
G1 X211.815 Y220.992 E17.39312
G1 X210.152 Y221.808 E17.48554
G1 X208.181 Y222.669 E17.59284
G1 X207.415 Y222.984 E17.63416
G1 X205.438 Y223.721 E17.73943
G1 X204.563 Y224.027 E17.78567
G1 X202.747 Y224.598 E17.88065
G1 X201.665 Y224.916 E17.93691
G1 X199.711 Y225.426 E18.03766
G1 X198.794 Y225.65 E18.08476
G1 X196.738 Y226.084 E18.18959
G1 X195.662 Y226.292 E18.24427
G1 X193.646 Y226.621 E18.34618
G1 X192.504 Y226.79 E18.40377
G1 X190.836 Y226.988 E18.48757
G1 X188.671 Y227.198 E18.59609
G1 X187.528 Y227.284 E18.65328
G1 X185.471 Y227.398 E18.75606
G1 X184.222 Y227.441 E18.81841
G1 X182.236 Y227.471 E18.9175
G1 X180.884 Y227.464 E18.98495
G1 X178.97 Y227.419 E19.08047
G1 X177.525 Y227.356 E19.15263
G1 X175.617 Y227.239 E19.248
G1 X174.142 Y227.12 E19.32183
G1 X172.323 Y226.941 E19.41302
G1 X170.744 Y226.756 E19.49233
G1 X168.886 Y226.505 E19.58587
G1 X167.309 Y226.264 E19.66546
G1 X165.563 Y225.966 E19.75383
G1 X163.885 Y225.65 E19.83901
G1 X162.152 Y225.293 E19.92729
G1 X160.49 Y224.922 E20.01225
G1 X158.802 Y224.515 E20.09888
G1 X157.084 Y224.071 E20.1874
G1 X155.455 Y223.622 E20.2717
G1 X153.699 Y223.107 E20.363
G1 X152.146 Y222.626 E20.44411
G1 X150.352 Y222.038 E20.5383
G1 X148.826 Y221.512 E20.61883
G1 X147.037 Y220.863 E20.71377
G1 X145.581 Y220.311 E20.79146
G1 X143.763 Y219.589 E20.88905
G1 X142.345 Y219.001 E20.96564
G1 X140.527 Y218.214 E21.06447
G1 X139.191 Y217.613 E21.13756
G1 X137.423 Y216.786 E21.23494
G1 X135.999 Y216.093 E21.31395
G1 X134.249 Y215.211 E21.41172
G1 X133.212 Y214.668 E21.47012
G1 X128.273 Y211.906 E21.75244
G1 X127.668 Y211.555 E21.78733
G1 X126.951 Y211.114 E21.82933
G1 X122.519 Y208.294 E22.0914
G1 X121.833 Y207.843 E22.13236
G1 X121.248 Y207.434 E22.16797
G1 X117.052 Y204.427 E22.42552
G1 X116.439 Y203.975 E22.46352
G1 X115.863 Y203.525 E22.49998
G1 X111.912 Y200.356 E22.75267
G1 X111.269 Y199.825 E22.79428
G1 X107.053 Y196.075 E23.07578
G1 X106.34 Y195.418 E23.12415
G1 X102.541 Y191.671 E23.39036
G1 X101.809 Y190.924 E23.44254
G1 X98.359 Y187.169 E23.69694
G1 X97.646 Y186.368 E23.75044
G1 X94.513 Y182.616 E23.99431
G1 X93.784 Y181.717 E24.05205
G1 X90.958 Y178.002 E24.28493
G1 X90.29 Y177.097 E24.34104
G1 X87.933 Y173.707 E24.54703
G1 X86.781 Y171.977 E24.65073
G1 X85.063 Y169.276 E24.81043
G1 X83.988 Y167.511 E24.91354
G1 X82.472 Y164.912 E25.06365
G1 X81.558 Y163.276 E25.15714
G1 X80.207 Y160.752 E25.29997
G1 X79.423 Y159.225 E25.3856
G1 X78.173 Y156.694 E25.52644
G1 X77.61 Y155.516 E25.59158
G1 X76.22 Y152.507 E25.75694
G1 X75.038 Y150.003 E25.89508
G1 X73.811 Y147.583 E26.03045
G1 X72.497 Y145.161 E26.16792
G1 X71.128 Y142.801 E26.30404
G1 X69.687 Y140.471 E26.44072
G1 X68.179 Y138.18 E26.57755
G1 X66.584 Y135.901 E26.71633
G1 X64.979 Y133.739 E26.85067
G1 X63.294 Y131.6 E26.98652
G1 X61.536 Y129.492 E27.12346
G1 X59.717 Y127.435 E27.26045
G1 X57.857 Y125.444 E27.39639
G1 X55.565 Y123.139 E27.55856
G1 X54.452 Y122.055 E27.63607
G1 X51.883 Y119.596 E27.81349
G1 X49.008 Y116.889 E28.0105
G1 X43.709 Y111.964 E28.37142
G1 X38.525 Y107.168 E28.72376
G1 X32.696 Y101.715 E29.12198
G1 X28.092 Y97.302 E29.44015
G1 X25.627 Y94.878 E29.61263
G1 X23.232 Y92.459 E29.78246
G1 X21.098 Y90.232 E29.93634
G1 X20.393 Y89.481 E29.98773
G1 X19.12 Y88.096 E30.08158
G1 X18.256 Y87.135 E30.14605
G1 X17.233 Y85.971 E30.22337
G1 X16.288 Y84.865 E30.29594
G1 X15.51 Y83.931 E30.35659
G1 X14.521 Y82.705 E30.43517
G1 X13.955 Y81.98 E30.48106
G1 X12.723 Y80.348 E30.58308
G1 X11.286 Y78.284 E30.70855
G1 X10.177 Y76.555 E30.81103
G1 X9.446 Y75.335 E30.88199
G1 X9.097 Y74.713 E30.91757
G1 X8.084 Y72.797 E31.0257
G1 X7.714 Y72.037 E31.06787
G1 X7.369 Y71.269 E31.10987
G1 X6.313 Y68.8 E31.24384
G1 X5.938 Y67.81 E31.29666
G1 X5.416 Y66.354 E31.37383
G1 X4.721 Y64.279 E31.483
G1 X4.221 Y62.674 E31.56687
G1 X3.802 Y61.258 E31.64054
G1 X3.194 Y59.098 E31.75249
G1 X2.847 Y57.786 E31.8202
G1 X2.299 Y55.591 E31.93307
G1 X1.851 Y53.632 E32.03333
G1 X1.353 Y51.251 E32.15469
G1 X1.205 Y50.487 E32.19351
G1 X1.08 Y49.73 E32.23179
G1 X0.635 Y46.817 E32.37881
G1 X0.492 Y45.773 E32.43138
G1 X0.378 Y44.683 E32.48606
G1 X0.204 Y42.555 E32.59258
G1 X0.116 Y40.888 E32.67586
G1 X0.087 Y39.449 E32.74767
G1 X0.082 Y38.314 E32.80429
G1 X0.121 Y36.844 E32.87766
G1 X0.164 Y35.842 E32.92769
G1 X0.284 Y34.218 E33.00893
G1 X0.369 Y33.301 E33.05488
G1 X0.588 Y31.569 E33.14198
G1 X0.704 Y30.773 E33.18211
G1 X0.831 Y30.033 E33.21957
G1 X1.04 Y28.918 E33.27616
G1 X1.182 Y28.214 E33.312
G1 X1.375 Y27.373 E33.35504
G1 X1.647 Y26.273 E33.41158
G1 X1.81 Y25.653 E33.44356
G1 X2.1 Y24.668 E33.49479
G1 X2.619 Y23.043 E33.57989
G1 X3.013 Y21.96 E33.63739
G1 X3.562 Y20.559 E33.71246
G1 X4.075 Y19.395 E33.77592
G1 X4.897 Y17.654 E33.87197
G1 X5.763 Y16.093 E33.96103
G1 X6.248 Y15.261 E34.00908
G1 X7.216 Y13.778 E34.09743
G1 X7.767 Y12.979 E34.14586
G1 X8.839 Y11.598 E34.23308
G1 X9.423 Y10.88 E34.27925
G1 X10.628 Y9.568 E34.36812
G1 F1500 E27.86812
;MESH:Insolekai-1.stl
G0 F3600 X12.486 Y11.294
G0 X13.281 Y12.03
G0 X57.661 Y79.861
G0 X122.252 Y156.586
G0 X121.913 Y156.794
;TYPE:WALL-INNER
G1 F1500 E34.36812
G1 F1800 X121.677 Y156.951 E34.38227
G1 X119.515 Y157.611 E34.49504
G1 X117.367 Y158.126 E34.60524
G1 X115.275 Y158.49 E34.71118
G1 X113.123 Y158.727 E34.8192
G1 X111.069 Y158.818 E34.92177
G1 X109.134 Y158.786 E35.01832
G1 X107.273 Y158.637 E35.11146
G1 X105.28 Y158.347 E35.21194
G1 X103.384 Y157.939 E35.3087
G1 X101.549 Y157.411 E35.40396
G1 X99.917 Y156.826 E35.49046
G1 X98.383 Y156.159 E35.57391
G1 X96.738 Y155.315 E35.66615
G1 X95.257 Y154.424 E35.75238
G1 X93.801 Y153.412 E35.84084
G1 X92.495 Y152.377 E35.92398
G1 X90.244 Y150.274 E36.07767
G1 X88.074 Y147.798 E36.24192
G1 X86.196 Y145.243 E36.40012
G1 X84.619 Y142.8 E36.54519
G1 X81.19 Y137.055 E36.87898
G1 X79.503 Y134.345 E37.03824
G1 X77.694 Y131.686 E37.19869
G1 X75.583 Y128.936 E37.37165
G1 X73.061 Y126.021 E37.56395
G1 X70.233 Y123.114 E37.76629
G1 X66.955 Y120.041 E37.99046
G1 X63.562 Y117.044 E38.21631
G1 X59.682 Y113.693 E38.47209
G1 X56.497 Y110.896 E38.68356
G1 X53.145 Y107.763 E38.91247
G1 X51.429 Y106.026 E39.03428
G1 X49.854 Y104.278 E39.15167
G1 X48.574 Y102.706 E39.25281
G1 X47.433 Y101.116 E39.35045
G1 X46.441 Y99.468 E39.44641
G1 X45.692 Y97.911 E39.53261
G1 X45.13 Y96.302 E39.61764
G1 X44.797 Y94.642 E39.70211
G1 X44.723 Y93.092 E39.77953
G1 X44.906 Y91.526 E39.85819
G1 X45.347 Y89.999 E39.93748
G1 X46.038 Y88.536 E40.0182
G1 X46.976 Y87.115 E40.10315
G1 X48.134 Y85.764 E40.19192
G1 X49.519 Y84.474 E40.28635
G1 X51.036 Y83.297 E40.38214
G1 X51.237 Y83.203 E40.39321
G1 X51.384 Y83.184 E40.40061
G1 X51.595 Y83.222 E40.4113
G1 X51.765 Y83.313 E40.42092
G1 X121.976 Y156.043 E45.46434
G1 X122.069 Y156.32 E45.47891
G1 X122.025 Y156.621 E45.49409
G1 X121.913 Y156.794 E45.50437
G0 F3600 X122.024 Y157.157
G0 X122.807 Y156.851
G0 X129.003 Y153.893
G0 X128.777 Y153.547
G1 F1800 X128.579 Y153.503 E45.51449
G1 X128.423 Y153.414 E45.52345
G1 X57.922 Y80.385 E50.58765
G1 X57.827 Y80.159 E50.59988
G1 X57.847 Y79.833 E50.61617
G1 X57.942 Y79.659 E50.62606
G1 X58.138 Y79.497 E50.63875
G1 X61.026 Y78.423 E50.79247
G1 X63.964 Y77.526 E50.94573
G1 X66.968 Y76.782 E51.10013
G1 X70.045 Y76.195 E51.25641
G1 X70.242 Y76.218 E51.2663
G1 X70.507 Y76.378 E51.28175
G1 X137.566 Y145.84 E56.09864
G1 X137.655 Y146.042 E56.10965
G1 X137.659 Y146.333 E56.12417
G1 X137.57 Y146.547 E56.13573
G1 X135.567 Y148.559 E56.27737
G1 X133.536 Y150.335 E56.41198
G1 X131.37 Y151.982 E56.54773
G1 X129.097 Y153.473 E56.68335
G1 X128.777 Y153.547 E56.69974
G0 F3600 X129.003 Y153.893
G0 X131.506 Y152.178
G0 X133.681 Y150.525
G0 X135.747 Y148.718
G0 X138.235 Y146.205
G0 X141.161 Y142.416
G0 X142.237 Y140.968
G0 X141.795 Y140.729
G1 F1800 X141.582 Y140.74 E56.71038
G1 X141.282 Y140.619 E56.72652
G1 X79.331 Y76.444 E61.17664
G1 X79.239 Y76.165 E61.1913
G1 X79.258 Y75.938 E61.20267
G1 X79.405 Y75.658 E61.21844
G1 X79.535 Y75.544 E61.22707
G1 X79.864 Y75.447 E61.24418
G1 X82.533 Y75.571 E61.37748
G1 X85.226 Y75.865 E61.51264
G1 X87.724 Y76.318 E61.63929
G1 X90.118 Y76.933 E61.76261
G1 X92.269 Y77.657 E61.87584
G1 X94.298 Y78.519 E61.98582
G1 X96.125 Y79.468 E62.08853
G1 X97.884 Y80.542 E62.19136
G1 X99.57 Y81.734 E62.29437
G1 X101.199 Y83.036 E62.39841
G1 X103.88 Y85.417 E62.5773
G1 X106.969 Y88.268 E62.78702
G1 X110.03 Y90.883 E62.98787
G1 X111.842 Y92.262 E63.10147
G1 X113.455 Y93.389 E63.19964
G1 X115.626 Y94.786 E63.32844
G1 X117.471 Y95.879 E63.43543
G1 X119.904 Y97.234 E63.57437
G1 X127.242 Y101.095 E63.98805
G1 X131.661 Y103.575 E64.24086
G1 X132.174 Y103.881 E64.27066
G1 X134.297 Y105.232 E64.3962
G1 X136.695 Y106.938 E64.54302
G1 X138.834 Y108.708 E64.68154
G1 X140.784 Y110.623 E64.81789
G1 X142.534 Y112.723 E64.95427
G1 X143.943 Y114.862 E65.08206
G1 X144.712 Y116.32 E65.1643
G1 X145.341 Y117.779 E65.24356
G1 X145.852 Y119.273 E65.32234
G1 X146.249 Y120.816 E65.40183
G1 X146.53 Y122.399 E65.48204
G1 X146.686 Y123.973 E65.56095
G1 X146.728 Y125.624 E65.64334
G1 X146.653 Y127.306 E65.72734
G1 X146.489 Y128.795 E65.80208
G1 X146.202 Y130.435 E65.88514
G1 X145.8 Y132.117 E65.97142
G1 X145.229 Y133.983 E66.06878
G1 X144.674 Y135.471 E66.14801
G1 X143.89 Y137.268 E66.24582
G1 X142.161 Y140.473 E66.4275
G1 X142.044 Y140.605 E66.4363
G1 X141.795 Y140.729 E66.45018
G0 F3600 X142.237 Y140.968
G0 X224.711 Y201.527
G0 X225 Y201.603
G1 F1800 X225.013 Y201.596 E66.45092
G1 X225.463 Y199.816 E66.54252
G1 X225.802 Y197.816 E66.64372
G1 X225.974 Y195.778 E66.74576
