;FLAVOR:Marlin
;TIME:9332
;Filament used: 9.9925m
;Layer height: 0.2
;MINX:0.257
;MINY:1.676
;MINZ:0.3
;MAXX:229.96
;MAXY:228.11
;MAXZ:1.3
;Generated with Cura_SteamEngine 5.4.0-beta.1
M140 S60
M105
M190 S60
M104 S200
M105
M109 S200
M82 ;absolute extrusion mode
G28 ;Home
G1 Z15.0 F6000 ;Move the platform down 15mm
;Prime the extruder
G92 E0
G1 F200 E3
G92 E0
G92 E0
G92 E0
G1 F1500 E-6.5
;LAYER_COUNT:6
;LAYER:0
M107
G0 F3600 X54.53 Y109.342 Z0.3
;TYPE:SKIRT
G1 F1500 E0
G1 F1800 X55.421 Y108.921 E0.04916
G1 X57.201 Y108.122 E0.14651
G1 X58.295 Y107.652 E0.20591
G1 X59.347 Y107.221 E0.26263
G1 X63.605 Y105.618 E0.48962
G1 X64.716 Y105.218 E0.54853
G1 X69.1 Y103.784 E0.77865
G1 X70.168 Y103.447 E0.83452
G1 X78.402 Y100.963 E1.2636
G1 X81.013 Y100.134 E1.40027
G1 X83.564 Y99.245 E1.53505
G1 X86.162 Y98.256 E1.67374
G1 X88.691 Y97.209 E1.8103
G1 X91.199 Y96.088 E1.94735
G1 X93.641 Y94.913 E2.08255
G1 X96.105 Y93.64 E2.22092
G1 X98.461 Y92.337 E2.35524
G1 X100.838 Y90.933 E2.49297
G1 X103.144 Y89.48 E2.62895
G1 X105.427 Y87.951 E2.76603
G1 X107.673 Y86.354 E2.90353
G1 X109.845 Y84.714 E3.03931
G1 X112.086 Y82.92 E3.18252
G1 X114.216 Y81.137 E3.32111
G1 X116.317 Y79.326 E3.45949
G1 X118.02 Y77.824 E3.57278
G1 X120.478 Y75.606 E3.73796
G1 X121.883 Y74.312 E3.83325
G1 X124.383 Y71.968 E4.00422
G1 X125.853 Y70.56 E4.10578
G1 X127.01 Y69.428 E4.18653
G1 X128.97 Y67.456 E4.32525
G1 X130.849 Y65.457 E4.46212
G1 X132.676 Y63.397 E4.59949
G1 X134.424 Y61.312 E4.73523
G1 X136.13 Y59.157 E4.87235
G1 X137.742 Y56.997 E5.00682
G1 X139.349 Y54.713 E5.14615
G1 X140.847 Y52.446 E5.28171
G1 X142.285 Y50.135 E5.4175
G1 X143.669 Y47.761 E5.5546
G1 X144.988 Y45.347 E5.69184
G1 X147.044 Y41.309 E5.91791
G1 X147.962 Y39.6 E6.01469
G1 X148.545 Y38.562 E6.07409
G1 X148.972 Y37.825 E6.11658
G1 X149.66 Y36.675 E6.18344
G1 X150.112 Y35.941 E6.22645
G1 X150.877 Y34.738 E6.29757
G1 X151.371 Y33.982 E6.34263
G1 X152.197 Y32.76 E6.41621
G1 X152.768 Y31.939 E6.46611
G1 X153.666 Y30.69 E6.54285
G1 X154.275 Y29.866 E6.59397
G1 X155.246 Y28.594 E6.67381
G1 X155.929 Y27.725 E6.72895
G1 X156.944 Y26.477 E6.80921
G1 X157.74 Y25.528 E6.871
G1 X158.753 Y24.356 E6.94829
G1 X159.61 Y23.396 E7.01249
G1 X160.759 Y22.152 E7.09698
G1 X161.608 Y21.262 E7.15834
G1 X162.855 Y19.995 E7.24703
G1 X163.754 Y19.116 E7.30976
G1 X165.057 Y17.883 E7.39926
G1 X165.971 Y17.049 E7.46099
G1 X167.335 Y15.849 E7.55162
G1 X168.253 Y15.071 E7.61166
G1 X169.815 Y13.799 E7.71216
G1 X170.95 Y12.912 E7.78402
G1 X171.808 Y12.263 E7.8377
G1 X173.455 Y11.086 E7.93869
G1 X174.355 Y10.463 E7.9933
G1 X176.018 Y9.382 E8.09226
G1 X176.944 Y8.801 E8.14679
G1 X178.705 Y7.774 E8.2485
G1 X179.55 Y7.3 E8.29684
G1 X181.466 Y6.309 E8.40446
G1 X182.089 Y6 E8.43915
G1 X182.844 Y5.651 E8.48065
G1 X184.845 Y4.775 E8.58963
G1 X185.785 Y4.407 E8.63999
G1 X187.513 Y3.774 E8.7318
G1 X188.778 Y3.371 E8.79804
G1 X189.851 Y3.052 E8.85388
G1 X190.79 Y2.789 E8.90253
G1 X192.692 Y2.369 E8.99971
G1 X193.559 Y2.197 E9.04381
G1 X195.509 Y1.918 E9.14209
G1 X196.41 Y1.813 E9.18734
G1 X198.312 Y1.702 E9.28239
G1 X199.134 Y1.676 E9.32342
G1 X200.129 Y1.696 E9.37307
G1 X201.744 Y1.766 E9.45372
G1 X203.059 Y1.916 E9.51975
G1 X204.51 Y2.12 E9.59286
G1 X205.089 Y2.233 E9.62229
G1 X206.481 Y2.562 E9.69365
G1 X207.505 Y2.826 E9.74641
G1 X209.051 Y3.361 E9.82802
G1 X209.982 Y3.706 E9.87756
G1 X210.445 Y3.911 E9.90282
G1 X211.647 Y4.473 E9.96902
G1 X212.547 Y4.916 E10.01907
G1 X214.461 Y6.071 E10.1306
G1 X215.66 Y6.922 E10.20395
G1 X216.723 Y7.721 E10.27029
G1 X217.6 Y8.48 E10.32816
G1 X218.873 Y9.648 E10.41435
G1 X219.482 Y10.283 E10.45824
G1 X220.737 Y11.66 E10.5512
G1 X221.273 Y12.327 E10.59389
G1 X221.898 Y13.13 E10.64465
G1 X222.539 Y13.994 E10.69832
G1 X223.498 Y15.445 E10.7851
G1 X223.911 Y16.097 E10.8236
G1 X224.208 Y16.608 E10.85309
G1 X224.844 Y17.757 E10.91861
G1 X225.429 Y18.881 E10.98183
G1 X226.236 Y20.635 E11.07815
G1 X226.788 Y21.981 E11.15073
G1 X227.318 Y23.386 E11.22565
G1 X227.693 Y24.518 E11.28514
G1 X228.17 Y26.081 E11.36667
G1 X228.436 Y27.093 E11.41888
G1 X228.852 Y28.833 E11.50813
G1 X229.01 Y29.615 E11.54793
G1 X229.214 Y30.714 E11.6037
G1 X229.343 Y31.466 E11.64176
G1 X229.6 Y33.362 E11.73722
G1 X229.703 Y34.27 E11.78281
G1 X229.84 Y35.974 E11.8681
G1 X229.903 Y37.012 E11.91998
G1 X229.949 Y38.609 E11.99969
G1 X229.96 Y39.58 E12.04813
G1 X229.935 Y41.02 E12.11999
G1 X229.893 Y42.243 E12.18104
G1 X229.83 Y43.247 E12.23123
G1 X229.661 Y45.314 E12.33469
G1 X229.483 Y46.908 E12.41471
G1 X228.959 Y50.365 E12.58915
G1 X228.802 Y51.293 E12.63611
G1 X228.194 Y54.241 E12.78628
G1 X227.721 Y56.308 E12.89207
G1 X227.193 Y58.42 E13.00068
G1 X226.828 Y59.796 E13.0717
G1 X226.221 Y61.956 E13.18364
G1 X225.807 Y63.348 E13.2561
G1 X225.3 Y64.97 E13.34088
G1 X224.593 Y67.076 E13.45171
G1 X223.868 Y69.073 E13.5577
G1 X223.394 Y70.228 E13.61999
G1 X222.641 Y71.968 E13.71458
G1 X222.321 Y72.678 E13.75343
G1 X221.918 Y73.507 E13.79942
G1 X220.977 Y75.284 E13.89974
G1 X219.832 Y77.239 E14.01277
G1 X218.576 Y79.186 E14.12836
G1 X217.445 Y80.801 E14.22673
G1 X217.118 Y81.25 E14.25444
G1 X216.053 Y82.66 E14.3426
G1 X215.489 Y83.379 E14.38819
G1 X214.498 Y84.607 E14.46691
G1 X213.725 Y85.535 E14.52717
G1 X212.777 Y86.643 E14.59992
G1 X211.695 Y87.874 E14.68169
G1 X210.972 Y88.678 E14.73563
G1 X209.645 Y90.121 E14.83344
G1 X208.869 Y90.948 E14.89002
G1 X206.731 Y93.173 E15.04396
G1 X204.995 Y94.934 E15.16733
G1 X202.562 Y97.342 E15.33811
G1 X201.894 Y97.992 E15.38461
G1 X196.795 Y102.873 E15.73677
G1 X191.501 Y107.818 E16.09819
G1 X186.165 Y112.756 E16.4609
G1 X180.54 Y117.986 E16.8441
G1 X178.168 Y120.222 E17.00673
G1 X176.259 Y122.044 E17.13838
G1 X174.409 Y123.84 E17.26702
G1 X172.495 Y125.757 E17.40217
G1 X170.595 Y127.772 E17.54034
G1 X168.764 Y129.827 E17.67766
G1 X167.045 Y131.87 E17.81086
G1 X165.305 Y134.061 E17.95045
G1 X163.67 Y136.242 E18.08644
G1 X162.098 Y138.469 E18.22244
G1 X160.566 Y140.773 E18.36048
G1 X159.131 Y143.072 E18.49568
G1 X157.75 Y145.432 E18.6321
G1 X156.414 Y147.867 E18.77067
G1 X155.195 Y150.248 E18.90412
G1 X153.817 Y153.151 E19.06444
G1 X152.402 Y156.212 E19.23268
G1 X151.849 Y157.368 E19.29661
G1 X150.597 Y159.902 E19.43762
G1 X149.813 Y161.424 E19.52304
G1 X148.457 Y163.958 E19.66642
G1 X147.528 Y165.617 E19.76128
G1 X146.021 Y168.201 E19.91052
G1 X144.944 Y169.965 E20.01364
G1 X143.212 Y172.685 E20.17451
G1 X142.07 Y174.4 E20.27731
G1 X139.964 Y177.427 E20.46128
G1 X139.262 Y178.402 E20.52122
G1 X136.46 Y182.082 E20.75198
G1 X135.788 Y182.938 E20.80627
G1 X132.663 Y186.684 E21.04965
G1 X131.996 Y187.459 E21.10067
G1 X128.538 Y191.231 E21.35596
G1 X127.839 Y191.969 E21.40668
G1 X124.099 Y195.669 E21.66915
G1 X123.39 Y196.347 E21.71809
G1 X119.264 Y200.035 E21.99418
G1 X118.588 Y200.618 E22.03872
G1 X114.17 Y204.168 E22.32147
G1 X113.576 Y204.631 E22.35905
G1 X113.002 Y205.055 E22.39465
G1 X108.788 Y208.074 E22.65327
G1 X108.062 Y208.579 E22.69739
G1 X107.533 Y208.925 E22.72893
G1 X103.041 Y211.783 E22.99455
G1 X102.433 Y212.157 E23.03016
G1 X101.769 Y212.542 E23.06846
G1 X97.059 Y215.175 E23.33766
G1 X96.065 Y215.712 E23.39403
G1 X93.96 Y216.772 E23.51161
G1 X92.608 Y217.429 E23.58661
G1 X90.851 Y218.25 E23.68336
G1 X89.448 Y218.881 E23.76011
G1 X87.626 Y219.668 E23.85913
G1 X86.236 Y220.243 E23.93417
G1 X84.424 Y220.962 E24.03143
G1 X82.936 Y221.526 E24.11082
G1 X81.171 Y222.165 E24.20447
G1 X79.689 Y222.677 E24.2827
G1 X77.885 Y223.267 E24.37739
G1 X76.246 Y223.774 E24.46298
G1 X74.525 Y224.277 E24.55244
G1 X72.921 Y224.718 E24.63543
G1 X71.197 Y225.163 E24.72426
G1 X69.502 Y225.57 E24.81123
G1 X67.795 Y225.95 E24.89847
G1 X66.124 Y226.294 E24.98359
G1 X64.434 Y226.612 E25.06938
G1 X62.673 Y226.911 E25.1585
G1 X61.072 Y227.155 E25.23929
G1 X59.264 Y227.398 E25.33031
G1 X57.682 Y227.583 E25.40977
G1 X55.862 Y227.762 E25.50101
G1 X54.347 Y227.883 E25.57683
G1 X52.467 Y227.998 E25.6708
G1 X51.004 Y228.06 E25.74386
G1 X49.097 Y228.104 E25.83902
G1 X47.754 Y228.11 E25.90602
G1 X45.739 Y228.078 E26.00657
G1 X44.486 Y228.033 E26.06912
G1 X42.459 Y227.919 E26.17041
G1 X41.327 Y227.833 E26.22704
G1 X39.164 Y227.622 E26.33547
G1 X37.87 Y227.468 E26.40048
G1 X36.758 Y227.319 E26.45646
G1 X34.746 Y226.992 E26.55815
G1 X33.691 Y226.803 E26.61163
G1 X31.738 Y226.395 E26.71116
G1 X30.721 Y226.165 E26.76318
G1 X28.838 Y225.679 E26.86021
G1 X27.862 Y225.409 E26.91073
G1 X25.992 Y224.831 E27.00838
G1 X25.068 Y224.526 E27.05692
G1 X23.218 Y223.85 E27.15519
G1 X22.421 Y223.542 E27.19782
G1 X20.682 Y222.802 E27.2921
G1 X19.858 Y222.432 E27.33717
G1 X18.234 Y221.635 E27.42742
G1 X17.49 Y221.25 E27.46921
G1 X16.709 Y220.818 E27.51374
G1 X15.211 Y219.946 E27.60022
G1 X14.344 Y219.396 E27.65144
G1 X13.218 Y218.649 E27.71886
G1 X12.099 Y217.837 E27.78783
G1 X11.257 Y217.193 E27.84072
G1 X9.989 Y216.135 E27.92311
G1 X8.907 Y215.172 E27.99537
G1 X7.83 Y214.08 E28.07189
G1 X7.208 Y213.425 E28.11696
G1 X6.249 Y212.296 E28.19086
G1 X5.653 Y211.554 E28.23834
G1 X4.815 Y210.381 E28.31026
G1 X4.35 Y209.694 E28.35165
G1 X3.877 Y208.907 E28.39746
G1 X3.296 Y207.893 E28.45576
G1 X2.783 Y206.855 E28.51353
G1 X2.219 Y205.6 E28.58217
G1 X1.879 Y204.704 E28.62999
G1 X1.462 Y203.517 E28.69275
G1 X1.074 Y202.09 E28.76653
G1 X0.839 Y201.102 E28.8172
G1 X0.592 Y199.702 E28.88812
G1 X0.465 Y198.843 E28.93144
G1 X0.39 Y198.086 E28.9694
G1 X0.282 Y196.672 E29.04015
G1 X0.26 Y195.898 E29.07878
G1 X0.257 Y194.61 E29.14304
G1 X0.319 Y193.061 E29.22038
G1 X0.405 Y191.846 E29.28115
G1 X0.498 Y190.973 E29.32495
G1 X0.731 Y189.2 E29.41416
G1 X1.007 Y187.599 E29.49522
G1 X1.195 Y186.619 E29.545
G1 X1.497 Y185.265 E29.61421
G1 X1.979 Y183.307 E29.71481
G1 X2.189 Y182.523 E29.7553
G1 X2.67 Y180.839 E29.84268
G1 X3.018 Y179.691 E29.90253
G1 X3.444 Y178.359 E29.9723
G1 X3.924 Y176.921 E30.04793
G1 X4.337 Y175.735 E30.11058
G1 X4.925 Y174.111 E30.19675
G1 X5.307 Y173.086 E30.25133
G1 X5.963 Y171.386 E30.34224
G1 X6.471 Y170.117 E30.41043
G1 X8.296 Y165.738 E30.64711
G1 X8.968 Y164.197 E30.73099
G1 X10.98 Y159.777 E30.97327
G1 X11.686 Y158.289 E31.05544
G1 X13.922 Y153.764 E31.30725
G1 X14.739 Y152.182 E31.39608
G1 X17.063 Y147.872 E31.64038
G1 X18.146 Y145.963 E31.74988
G1 X20.705 Y141.658 E31.99973
G1 X21.232 Y140.803 E32.04984
G1 X24.508 Y135.866 E32.34544
G1 X25.147 Y134.937 E32.4017
G1 X26.49 Y133.096 E32.51539
G1 X27.484 Y131.782 E32.59759
G1 X28.491 Y130.497 E32.67904
G1 X29.666 Y129.046 E32.77219
G1 X30.602 Y127.933 E32.84474
G1 X31.866 Y126.488 E32.94052
G1 X32.798 Y125.463 E33.00964
G1 X34.208 Y123.975 E33.11191
G1 X35.232 Y122.936 E33.18469
G1 X36.136 Y122.049 E33.24787
G1 X37.616 Y120.674 E33.34866
G1 X38.431 Y119.94 E33.40338
G1 X40.018 Y118.589 E33.50736
G1 X40.891 Y117.87 E33.56378
G1 X42.504 Y116.622 E33.66553
G1 X43.423 Y115.933 E33.72283
G1 X45.096 Y114.757 E33.82486
G1 X45.94 Y114.183 E33.87578
G1 X47.663 Y113.086 E33.97768
G1 X48.591 Y112.516 E34.03202
G1 X49.993 Y111.708 E34.11275
G1 X51.927 Y110.65 E34.22273
G1 X52.686 Y110.255 E34.26542
G1 X54.53 Y109.342 E34.36808
G1 F1500 E27.86808
;MESH:Insolekai-1.stl
G0 F3600 X55.611 Y111.635
G0 X56.066 Y112.598
G0 X87.741 Y141.494
G0 X88.089 Y141.308
;TYPE:WALL-INNER
G1 F1500 E34.36808
G1 F1800 X87.881 Y141.123 E34.38196
G1 X86.141 Y137.89 E34.56513
G1 X85.362 Y136.095 E34.66276
G1 X84.805 Y134.607 E34.74202
G1 X84.236 Y132.749 E34.83897
G1 X83.861 Y131.212 E34.9179
G1 X83.577 Y129.608 E34.99917
G1 X83.383 Y127.928 E35.08354
G1 X83.309 Y126.246 E35.16754
G1 X83.354 Y124.611 E35.24914
G1 X83.516 Y122.997 E35.33007
G1 X83.8 Y121.409 E35.41055
G1 X84.184 Y119.917 E35.48741
G1 X84.715 Y118.373 E35.56887
G1 X85.344 Y116.922 E35.64777
G1 X86.065 Y115.551 E35.72505
G1 X87.546 Y113.307 E35.85919
G1 X89.214 Y111.305 E35.98919
G1 X91.207 Y109.345 E36.12865
G1 X93.374 Y107.554 E36.26891
G1 X95.657 Y105.923 E36.40889
G1 X97.878 Y104.511 E36.54019
G1 X98.39 Y104.206 E36.56992
G1 X102.812 Y101.721 E36.82299
G1 X108.088 Y98.958 E37.12012
G1 X110.162 Y97.858 E37.23724
G1 X112.61 Y96.493 E37.37708
G1 X114.413 Y95.424 E37.48165
G1 X116.585 Y94.027 E37.61049
G1 X118.197 Y92.899 E37.70865
G1 X120.004 Y91.525 E37.8219
G1 X123.072 Y88.904 E38.02322
G1 X126.169 Y86.047 E38.23343
G1 X128.87 Y83.647 E38.41369
G1 X130.465 Y82.375 E38.51548
G1 X132.156 Y81.179 E38.61881
G1 X133.95 Y80.086 E38.72361
G1 X135.788 Y79.134 E38.82688
G1 X137.814 Y78.278 E38.93661
G1 X139.922 Y77.57 E39.04755
G1 X142.317 Y76.955 E39.17092
G1 X144.821 Y76.506 E39.29784
G1 X147.507 Y76.208 E39.43266
G1 X150.148 Y76.086 E39.56456
G1 X150.391 Y76.125 E39.57684
G1 X150.666 Y76.339 E39.59423
G1 X150.78 Y76.576 E39.60735
G1 X150.799 Y76.803 E39.61871
G1 X150.707 Y77.082 E39.63337
G1 X88.812 Y141.199 E44.07947
G1 X88.556 Y141.356 E44.09446
G1 X88.369 Y141.382 E44.10387
G1 X88.089 Y141.308 E44.11832
G0 F3600 X87.741 Y141.494
G0 X88.189 Y142.165
G0 X91.804 Y146.843
G0 X94.29 Y149.356
G0 X96.357 Y151.163
G0 X98.117 Y152.5
G0 X100.98 Y154.494
G0 X101.184 Y154.184
G1 F1800 X100.942 Y154.111 E44.13093
G1 X98.667 Y152.619 E44.26667
G1 X96.502 Y150.973 E44.40235
G1 X94.435 Y149.165 E44.53936
G1 X92.518 Y147.237 E44.675
G1 X92.416 Y147.081 E44.6843
G1 X92.366 Y146.892 E44.69405
G1 X92.411 Y146.6 E44.70879
G1 X92.532 Y146.417 E44.71974
G1 X159.571 Y76.978 E49.53511
G1 X159.736 Y76.877 E49.54476
G1 X159.994 Y76.833 E49.55782
G1 X163.071 Y77.421 E49.71411
G1 X166.087 Y78.168 E49.86913
G1 X169.047 Y79.073 E50.02355
G1 X171.861 Y80.117 E50.17329
G1 X172.03 Y80.226 E50.18332
G1 X172.191 Y80.471 E50.19795
G1 X172.211 Y80.797 E50.21424
G1 X172.116 Y81.023 E50.22648
G1 X101.664 Y154.002 E55.28718
G1 X101.522 Y154.111 E55.29611
G1 X101.184 Y154.184 E55.31336
G0 F3600 X100.98 Y154.494
G0 X107.047 Y157.416
G0 X108.081 Y157.815
G0 X108.182 Y157.486
G1 F1800 X108.014 Y157.259 E55.32745
G1 X107.97 Y156.958 E55.34262
G1 X108.063 Y156.681 E55.3572
G1 X178.274 Y83.952 E60.40058
G1 X178.444 Y83.861 E60.4102
G1 X178.7 Y83.825 E60.4231
G1 X178.954 Y83.904 E60.43637
G1 X180.521 Y85.114 E60.53514
G1 X181.921 Y86.419 E60.63062
G1 X183.068 Y87.758 E60.71859
G1 X184.003 Y89.176 E60.80333
G1 X184.693 Y90.641 E60.88412
G1 X185.134 Y92.164 E60.96322
G1 X185.311 Y93.674 E61.03907
G1 X185.241 Y95.281 E61.11932
G1 X184.907 Y96.94 E61.20375
G1 X184.346 Y98.549 E61.28876
G1 X183.601 Y100.102 E61.37469
G1 X182.601 Y101.76 E61.47129
G1 X181.464 Y103.347 E61.56869
G1 X180.184 Y104.918 E61.66979
G1 X178.591 Y106.684 E61.78845
G1 X176.876 Y108.42 E61.91019
G1 X173.527 Y111.547 E62.13878
G1 X170.353 Y114.336 E62.34958
G1 X166.464 Y117.695 E62.60596
G1 X163.081 Y120.683 E62.83114
G1 X159.805 Y123.754 E63.05517
G1 X156.963 Y126.675 E63.25849
G1 X154.518 Y129.494 E63.44466
G1 X152.335 Y132.337 E63.62349
G1 X150.536 Y134.983 E63.78312
G1 X148.833 Y137.721 E63.94399
G1 X145.422 Y143.439 E64.27616
G1 X143.834 Y145.892 E64.42195
G1 X141.94 Y148.467 E64.58143
G1 X139.886 Y150.823 E64.73736
G1 X137.581 Y152.984 E64.895
G1 X136.236 Y154.051 E64.98065
G1 X134.78 Y155.063 E65.06911
G1 X133.301 Y155.953 E65.15523
G1 X131.654 Y156.798 E65.24758
G1 X130.121 Y157.464 E65.33097
G1 X128.452 Y158.062 E65.41942
G1 X126.616 Y158.587 E65.51469
G1 X124.718 Y158.994 E65.61153
G1 X122.764 Y159.276 E65.71003
G1 X120.903 Y159.425 E65.80317
G1 X118.969 Y159.456 E65.89967
G1 X116.877 Y159.361 E66.00415
G1 X114.754 Y159.13 E66.11069
G1 X112.63 Y158.755 E66.2183
G1 X110.488 Y158.239 E66.32822
G1 X108.362 Y157.589 E66.43913
G1 X108.182 Y157.486 E66.44948
G0 F3600 X108.081 Y157.815
G0 X5.345 Y202.229
G0 X5.054 Y202.293
G1 F1800 X5.047 Y202.304 E66.45013
